kasekiguchi/drone/scan_data.csv
t,ros_t,Xhat0,Xhat1,Xhat2,Xhat3,Xhat4,Xhat5,Xhat6,Xhat7,Xhat8,Xhat9,Xhat10,Xhat11,imu_X0,imu_X1,imu_X2,imu_X3,imu_X4,imu_X5,imu_X6,imu_X7,imu_X8,imu_X9,imu_X10,imu_X11,T265_X0,T265_X1,T265_X2,T265_X3,T265_X4,T265_X5,T265_X6,T265_X7,T265_X8,T265_X9,T265_X10,T265_X11,hector_X0,hector_X1,hector_X2,hector_X3,hector_X4,hector_X5,hector_X6,hector_X7,hector_X8,hector_X9,hector_X10,hector_X11,vl53_X0,vl53_X1,vl53_X2,vl53_X3,vl53_X4,vl53_X5,vl53_X6,vl53_X7,vl53_X8,vl53_X9,vl53_X10,vl53_X11,scan_X0,scan_X1,scan_X2,scan_X3,scan_X4,scan_X5,scan_X6,scan_X7,scan_X8,scan_X9,scan_X10,scan_X11,T265Y0,T265Y1,T265Y2,T265Y3,T265Y4,T265Y5,hectorY0,hectorY1,hectorY2,vl53Y0,scanY0,scanY1,scanY2,scanY3,U0,U1,U2,U3,U4,U5,X_0,X_1,X_2,X_3,X_4,X_5,X_6,X_7,X_8,X_9,X_10,X_11,Rev_imu,Rev_T265,Rev_hector,Rev_vl53,Rev_scan,PN_imu,PN_T265,PN_hector,PN_vl53,PN_scan,M_imu,M_T265,M_hector,M_vl53,M_scan,Phat0,Phat1,Phat2,Phat3,Phat4,Phat5,Phat6,Phat7,Phat8,Phat9,Phat10,Phat11,P_0,P_1,P_2,P_3,P_4,P_5,P_6,P_7,P_8,P_9,P_10,P_11,Q0,Q1,Q2,Q3,Q4,Q5,Q6,Q7,Q8,Q9,Q10,Q11,imu_R0,imu_R1,imu_R2,imu_R3,imu_R4,imu_R5,imu_R6,imu_R7,imu_R8,imu_R9,imu_R10,imu_R11,T265_R0,T265_R1,T265_R2,T265_R3,T265_R4,T265_R5,T265_R6,T265_R7,T265_R8,T265_R9,T265_R10,T265_R11,hector_R0,hector_R1,hector_R2,hector_R3,hector_R4,hector_R5,hector_R6,hector_R7,hector_R8,hector_R9,hector_R10,hector_R11,vl53_R0,vl53_R1,vl53_R2,vl53_R3,vl53_R4,vl53_R5,vl53_R6,vl53_R7,vl53_R8,vl53_R9,vl53_R10,vl53_R11,scan_R0,scan_R1,scan_R2,scan_R3,scan_R4,scan_R5,scan_R6,scan_R7,scan_R8,scan_R9,scan_R10,scan_R11
0.16275692,1.66858E+18,0.009311005,0.015395056,0.108407395,-0.00065626,0.001541825,1.569951967,-0.006406786,0.017331687,0.774813767,-0.000133487,0.000453017,-0.000288898,0,0,0,0,0,0,0,0,0,0,0,0,0.012609967,0.023647066,0.11732769,-0.008007788,0.065215239,1.542714183,0,0,0,0,0,0,-0.012630463,0.01158905,0,0,0,1.56320133,0,0,0,0,0,0,0,0,0,0,0,0,0,0,0.824850517,0,0,0,6.407000065,5.960000038,5.763999939,1.452000022,0,0,0,0,0,0,0,0,0.012609967,0.11732769,-0.023647066,-0.008007788,0.065215239,1.542714183,-0.012630463,0.01158905,1.56320133,0.824850517,6.407000065,5.960000038,5.763999939,1.452000022,-0.080430491,0.172790376,0.629709191,0,0,0,0.008630658,0.013918408,0.059052964,-0.000609486,0.00118379,1.57022351,-0.007799037,0.014309901,0.057662641,-0.000107738,0.000255919,-0.00013761,0,1,0,1,1,0,1,0,1,0,0,0.495896454,0,3.056333771,174.9317246,0.001472555,0.001472555,0.001552253,0.0104552,0.0104552,0.010197572,0.057205085,0.057205085,0.003837962,0.059969401,0.059969401,0.059939966,0.001766053,0.001766053,0.002139614,0.010513985,0.010513985,0.010302633,0.058434159,0.058434159,0.058896034,0.059987216,0.059987216,0.059972579,2.78E-06,2.78E-06,2.78E-06,2.78E-06,2.78E-06,2.78E-06,0.01,0.01,0.01,0.01,0.01,0.01,0,0,0,0,0,0,0,0,0,0,0,0,0.008860764,0.008860764,0.008860764,1.869953705,1.869953705,1,0,0,0,0,0,0,0.008860764,0.008860764,0,0,0,4,0,0,0,0,0,0,0,0,0,0,0,0,0,0,0.004112866,0,0,0,0.001707037,0.001707037,0.001707037,0.001707037,0,0,0,0,0,0,0,0
0.180339813,1.66858E+18,0.009636579,0.017312541,0.131981669,-0.00070332,0.001926121,1.569655527,-0.007380797,0.026727981,0.794958087,-0.000164429,0.000721113,-0.000500285,0,0,0,0,0,0,0,0,0,0,0,0,0.012609967,0.023647066,0.11732769,-0.008007788,0.065215239,1.542714183,0,0,0,0,0,0,-0.012630463,0.01158905,0,0,0,1.56320133,0,0,0,0,0,0,0,0,0,0,0,0,0,0,0.824850517,0,0,0,6.407000065,5.960000038,5.763999939,1.452000022,0,0,0,0,0,0,0,0,0.012609967,0.11732769,-0.023647066,-0.008007788,0.065215239,1.542714183,-0.012630463,0.01158905,1.56320133,0.824850517,6.407000065,5.960000038,5.763999939,1.452000022,-0.080430491,0.172790376,0.629709191,0,0,0,0.009052762,0.016068773,0.134584359,-0.000660709,0.001556926,1.569942337,-0.009087802,0.023091366,0.795804073,-0.000133487,0.000453017,-0.000288898,0,1,0,0,0,0,1,0,0,0,0,0.195108536,0,0,0,0.00145425,0.00145425,0.0013364,0.01084505,0.01084505,0.010533579,0.064764014,0.064764014,0.013812884,0.069936041,0.069936041,0.069879052,0.001739788,0.001739788,0.001573758,0.010908315,0.010908315,0.010645717,0.067205085,0.067205085,0.013837962,0.069969401,0.069969401,0.069939966,2.78E-06,2.78E-06,2.78E-06,2.78E-06,2.78E-06,2.78E-06,0.01,0.01,0.01,0.01,0.01,0.01,0,0,0,0,0,0,0,0,0,0,0,0,0.008860764,0.008860764,0.008860764,1.869953705,1.869953705,1,0,0,0,0,0,0,0.008860764,0.008860764,0,0,0,4,0,0,0,0,0,0,0,0,0,0,0,0,0,0,0.004112866,0,0,0,0.001707037,0.001707037,0.001707037,0.001707037,0,0,0,0,0,0,0,0
0.200359106,1.66858E+18,0.006296078,0.018281531,0.154217392,-0.000751003,0.002335216,1.569285934,-0.021129668,0.032422566,0.812409267,-0.00020266,0.00106994,-0.000825553,0,0,0,0,0,0,0,0,0,0,0,0,0.010492055,0.026992034,0.124674448,-0.007643004,0.06521786,1.542121959,0,0,0,0,0,0,-0.012809753,0.009483337,0,0,0,1.551125544,0,0,0,0,0,0,0,0,0,0,0,0,0,0,0.824850517,0,0,0,6.407000065,5.960000038,5.763999939,1.452000022,0,0,0,0,0,0,0,0,0.010492055,0.124674448,-0.026992034,-0.007643004,0.06521786,1.542121959,-0.012809753,0.009483337,1.551125544,0.824850517,6.407000065,5.960000038,5.763999939,1.452000022,-0.080430491,0.172790376,0.629709191,0,0,0,0.009345869,0.018299468,0.158830111,-0.000708801,0.001950158,1.569638851,-0.010061814,0.032487661,0.815948393,-0.000164429,0.000721113,-0.000500285,0,1,1,0,0,0,1,1,0,0,0,0.352113553,0.230994731,0,0,0.001286254,0.001286254,0.001196645,0.011380863,0.011380863,0.010978805,0.067833902,0.067833902,0.023702896,0.079878849,0.079878849,0.079749286,0.001812457,0.001812457,0.001383485,0.011450553,0.011450553,0.01113157,0.074764014,0.074764014,0.023812884,0.079936041,0.079936041,0.079879052,2.78E-06,2.78E-06,2.78E-06,2.78E-06,2.78E-06,2.78E-06,0.01,0.01,0.01,0.01,0.01,0.01,0,0,0,0,0,0,0,0,0,0,0,0,0.008860764,0.008860764,0.008860764,1.869953705,1.869953705,1,0,0,0,0,0,0,0.008860764,0.008860764,0,0,0,4,0,0,0,0,0,0,0,0,0,0,0,0,0,0,0.004112866,0,0,0,0.001707037,0.001707037,0.001707037,0.001707037,0,0,0,0,0,0,0,0
0.233658314,1.66858E+18,0.006051522,0.021363093,0.175891471,-0.000799584,0.002770552,1.568936199,-0.021674481,0.046248609,0.825013963,-0.000247855,0.001501808,-0.001180662,0,0,0,0,0,0,0,0,0,0,0,0,0.008719115,0.031435999,0.136261004,-0.007231555,0.064232994,1.541501277,0,0,0,0,0,0,-0.012809753,0.009483337,0,0,0,1.551125544,0,0,0,0,0,0,0,0,0,0,0,0,0,0,0.824850517,0,0,0,6.407000065,5.960000038,5.763999939,1.452000022,0,0,0,0,0,0,0,0,0.008719115,0.136261004,-0.031435999,-0.007231555,0.064232994,1.541501277,-0.012809753,0.009483337,1.551125544,0.824850517,6.407000065,5.960000038,5.763999939,1.452000022,-0.080430491,0.172790376,0.629709191,0,0,0,0.005547073,0.019458278,0.181647539,-0.000757759,0.002370881,1.569258416,-0.023810684,0.038182245,0.833399574,-0.00020266,0.00106994,-0.000825553,0,1,0,0,0,0,1,0,0,0,0,0.469449874,0,0,0,0.001409126,0.001409126,0.001123751,0.012081169,0.012081169,0.011608435,0.073055334,0.073055334,0.033356491,0.089787121,0.089787121,0.089583692,0.001675595,0.001675595,0.001286968,0.012159729,0.012159729,0.011744774,0.077833902,0.077833902,0.033702896,0.089878849,0.089878849,0.089749286,2.78E-06,2.78E-06,2.78E-06,2.78E-06,2.78E-06,2.78E-06,0.01,0.01,0.01,0.01,0.01,0.01,0,0,0,0,0,0,0,0,0,0,0,0,0.008860764,0.008860764,0.008860764,1.869953705,1.869953705,1,0,0,0,0,0,0,0.008860764,0.008860764,0,0,0,4,0,0,0,0,0,0,0,0,0,0,0,0,0,0,0.004112866,0,0,0,0.001707037,0.001707037,0.001707037,0.001707037,0,0,0,0,0,0,0,0
0.266937017,1.66858E+18,0.005580511,0.02495894,0.170990762,-0.000849398,0.003248939,1.56855704,-0.023013388,0.060882554,0.396782918,-0.000299465,0.00203382,-0.001611952,0,0,0,0,0,0,0,0,0,0,0,0,0.006968301,0.034135254,0.150074479,-0.006801599,0.064605672,1.541510462,0,0,0,0,0,0,-0.012809753,0.009483337,0,0,0,1.551125544,0,0,0,0,0,0,0,0,0,0,0,0,0,0,0.354821954,0,0,0,6.40899992,5.964000225,5.765999794,1.450999975,0,0,0,0,0,0,0,0,0.006968301,0.150074479,-0.034135254,-0.006801599,0.064605672,1.541510462,-0.012809753,0.009483337,1.551125544,0.354821954,6.40899992,5.964000225,5.765999794,1.450999975,-0.080430491,0.172790376,0.629709191,0,0,0,0.005284356,0.023000708,0.203741775,-0.000807846,0.002820612,1.568896844,-0.024355497,0.052008288,0.84600427,-0.000247855,0.001501808,-0.001180662,0,1,0,1,1,0,1,0,1,0,0,0.546631018,0,2.254426332,178.1381314,0.001558342,0.001558342,0.000973492,0.012963507,0.012963507,0.012407759,0.076225735,0.076225735,0.003750106,0.099647508,0.099647508,0.099332565,0.001890893,0.001890893,0.001272732,0.013054004,0.013054004,0.012563646,0.083055334,0.083055334,0.043356491,0.099787121,0.099787121,0.099583692,2.78E-06,2.78E-06,2.78E-06,2.78E-06,2.78E-06,2.78E-06,0.01,0.01,0.01,0.01,0.01,0.01,0,0,0,0,0,0,0,0,0,0,0,0,0.008860764,0.008860764,0.008860764,1.869953705,1.869953705,1,0,0,0,0,0,0,0.008860764,0.008860764,0,0,0,4,0,0,0,0,0,0,0,0,0,0,0,0,0,0,0.004112866,0,0,0,0.001707037,0.001707037,0.001707037,0.001707037,0,0,0,0,0,0,0,0
0.300354242,1.66858E+18,0.003325799,0.024956551,0.182379301,-0.000931552,0.003764239,1.568093347,-0.032354404,0.056821038,0.416638165,-0.000399381,0.002653346,-0.002192756,0,0,0,0,0,0,0,0,0,0,0,0,0.004769165,0.035935792,0.162908274,-0.010469041,0.062901318,1.544537705,0,0,0,0,0,0,-0.00415802,0.005069733,0,0,0,1.541479502,0,0,0,0,0,0,0,0,0,0,0,0,0,0,0.354821954,0,0,0,6.40899992,5.964000225,5.765999794,1.450999975,0,0,0,0,0,0,0,0,0.004769165,0.162908274,-0.035935792,-0.010469041,0.062901318,1.544537705,-0.00415802,0.005069733,1.541479502,0.354821954,6.40899992,5.964000225,5.765999794,1.450999975,-0.080430491,0.172790376,0.629709191,0,0,0,0.004768714,0.027084353,0.184566698,-0.00085938,0.003316733,1.568503308,-0.025694404,0.066642233,0.417773224,-0.000299465,0.00203382,-0.001611952,0,1,1,0,0,0,1,1,0,0,0,0.239228772,0.227135184,0,0,0.001432324,0.001432324,0.000894895,0.014044167,0.014044167,0.013344429,0.071647353,0.071647353,0.013723036,0.109443824,0.109443824,0.108878219,0.002116619,0.002116619,0.000995428,0.014150443,0.014150443,0.013570797,0.086225735,0.086225735,0.013750106,0.109647508,0.109647508,0.109332565,2.78E-06,2.78E-06,2.78E-06,2.78E-06,2.78E-06,2.78E-06,0.01,0.01,0.01,0.01,0.01,0.01,0,0,0,0,0,0,0,0,0,0,0,0,0.008860764,0.008860764,0.008860764,1.869953705,1.869953705,1,0,0,0,0,0,0,0.008860764,0.008860764,0,0,0,4,0,0,0,0,0,0,0,0,0,0,0,0,0,0,0.004112866,0,0,0,0.001707037,0.001707037,0.001707037,0.001707037,0,0,0,0,0,0,0,0
0.333637238,1.66858E+18,0.002178983,0.028776026,0.194598084,-0.001061808,0.004312185,1.567743124,-0.035146285,0.071156098,0.435300189,-0.000575252,0.003344392,-0.002619902,0,0,0,0,0,0,0,0,0,0,0,0,0.002071811,0.037065816,0.175644544,-0.015202217,0.059873772,1.548927242,0,0,0,0,0,0,-0.00415802,0.005069733,0,0,0,1.541479502,0,0,0,0,0,0,0,0,0,0,0,0,0,0,0.354821954,0,0,0,6.40899992,5.964000225,5.765999794,1.450999975,0,0,0,0,0,0,0,0,0.002071811,0.175644544,-0.037065816,-0.015202217,0.059873772,1.548927242,-0.00415802,0.005069733,1.541479502,0.354821954,6.40899992,5.964000225,5.765999794,1.450999975,-0.080430491,0.172790376,0.629709191,0,0,0,0.002202635,0.026946581,0.196617078,-0.000944865,0.003852684,1.568020255,-0.03503542,0.062580717,0.437628471,-0.000399381,0.002653346,-0.002192756,0,1,0,0,0,0,1,0,0,0,0,0.237616232,0,0,0,0.001601927,0.001601927,0.000853012,0.015337883,0.015337883,0.014514761,0.073879754,0.073879754,0.023602198,0.119156932,0.119156932,0.118370348,0.001955451,0.001955451,0.000943878,0.015464729,0.015464729,0.014728543,0.081647353,0.081647353,0.023723036,0.119443824,0.119443824,0.118878219,2.78E-06,2.78E-06,2.78E-06,2.78E-06,2.78E-06,2.78E-06,0.01,0.01,0.01,0.01,0.01,0.01,0,0,0,0,0,0,0,0,0,0,0,0,0.008860764,0.008860764,0.008860764,1.869953705,1.869953705,1,0,0,0,0,0,0,0.008860764,0.008860764,0,0,0,4,0,0,0,0,0,0,0,0,0,0,0,0,0,0,0.004112866,0,0,0,0.001707037,0.001707037,0.001707037,0.001707037,0,0,0,0,0,0,0,0
0.366934538,1.66858E+18,0.000546661,0.032917401,0.194973626,-0.001244546,0.004862557,1.567416627,-0.039755847,0.084672264,0.210808401,-0.000836837,0.004046308,-0.003012341,0,0,0,0,0,0,0,0,0,0,0,0,-0.001138877,0.039696529,0.191445832,-0.019224586,0.053108727,1.552598783,0,0,0,0,0,0,-0.00415802,0.005069733,0,0,0,1.541479502,0,0,0,0,0,0,0,0,0,0,0,0,0,0,0.180856104,0,0,0,6.407999992,5.967000008,5.761000156,1.452000022,0,0,0,0,0,0,0,0,-0.001138877,0.191445832,-0.039696529,-0.019224586,0.053108727,1.552598783,-0.00415802,0.005069733,1.541479502,0.180856104,6.407999992,5.967000008,5.761000156,1.452000022,-0.080430491,0.172790376,0.629709191,0,0,0,0.000962757,0.03124389,0.209457929,-0.001080983,0.004423665,1.567655794,-0.037827301,0.076915777,0.456290496,-0.000575252,0.003344392,-0.002619902,0,1,0,1,1,0,1,0,1,0,0,0.203955414,0,1.418275954,176.9474094,0.001754314,0.001754314,0.000774018,0.016857488,0.016857488,0.01588414,0.074576495,0.074576495,0.003659758,0.1287647,0.1287647,0.127680077,0.002187388,0.002187388,0.000947594,0.01701084,0.01701084,0.016140518,0.083879754,0.083879754,0.033602198,0.129156932,0.129156932,0.128370348,2.78E-06,2.78E-06,2.78E-06,2.78E-06,2.78E-06,2.78E-06,0.01,0.01,0.01,0.01,0.01,0.01,0,0,0,0,0,0,0,0,0,0,0,0,0.008860764,0.008860764,0.008860764,1.869953705,1.869953705,1,0,0,0,0,0,0,0.008860764,0.008860764,0,0,0,4,0,0,0,0,0,0,0,0,0,0,0,0,0,0,0.004112866,0,0,0,0.001707037,0.001707037,0.001707037,0.001707037,0,0,0,0,0,0,0,0
0.405243874,1.66858E+18,-0.001250222,0.02993779,0.202519574,-0.00145281,0.005412839,1.566961511,-0.044369939,0.06373129,0.231901317,-0.001138262,0.004740515,-0.003620995,0,0,0,0,0,0,0,0,0,0,0,0,-0.001906832,0.040751095,0.204408047,-0.019392704,0.04672988,1.55238377,0,0,0,0,0,0,-0.002182007,-0.002815247,0,0,0,1.545412758,0,0,0,0,0,0,0,0,0,0,0,0,0,0,0.180856104,0,0,0,6.407999992,5.967000008,5.761000156,1.452000022,0,0,0,0,0,0,0,0,-0.001906832,0.204408047,-0.040751095,-0.019392704,0.04672988,1.55238377,-0.002182007,-0.002815247,1.545412758,0.180856104,6.407999992,5.967000008,5.761000156,1.452000022,-0.080430491,0.172790376,0.629709191,0,0,0,-0.000823217,0.035835804,0.202350411,-0.001272441,0.004997434,1.567316215,-0.042436863,0.090431943,0.231798708,-0.000836837,0.004046308,-0.003012341,0,1,1,0,0,0,1,1,0,0,0,0.063300368,0.364911347,0,0,0.001549125,0.001549125,0.000728462,0.018613532,0.018613532,0.01738037,0.067506905,0.067506905,0.013635749,0.138242056,0.138242056,0.136543557,0.002382021,0.002382021,0.000793715,0.018800674,0.018800674,0.017766352,0.084576495,0.084576495,0.013659758,0.1387647,0.1387647,0.137680077,2.78E-06,2.78E-06,2.78E-06,2.78E-06,2.78E-06,2.78E-06,0.01,0.01,0.01,0.01,0.01,0.01,0,0,0,0,0,0,0,0,0,0,0,0,0.008860764,0.008860764,0.008860764,1.869953705,1.869953705,1,0,0,0,0,0,0,0.008860764,0.008860764,0,0,0,4,0,0,0,0,0,0,0,0,0,0,0,0,0,0,0.004112866,0,0,0,0.001707037,0.001707037,0.001707037,0.001707037,0,0,0,0,0,0,0,0
0.435211897,1.66858E+18,-0.002558694,0.034126697,0.211171226,-0.001645337,0.006034414,1.566580331,-0.046082012,0.078353973,0.253675057,-0.00140437,0.005538498,-0.00408186,0,0,0,0,0,0,0,0,0,0,0,0,-0.001648229,0.042454801,0.217701269,-0.01551369,0.047621783,1.553238165,0,0,0,0,0,0,-0.002182007,-0.002815247,0,0,0,1.545412758,0,0,0,0,0,0,0,0,0,0,0,0,0,0,0.180856104,0,0,0,6.407999992,5.967000008,5.761000156,1.452000022,0,0,0,0,0,0,0,0,-0.001648229,0.217701269,-0.042454801,-0.01551369,0.047621783,1.553238165,-0.002182007,-0.002815247,1.545412758,0.180856104,6.407999992,5.967000008,5.761000156,1.452000022,-0.080430491,0.172790376,0.629709191,0,0,0,-0.002773904,0.032158161,0.210599456,-0.001490752,0.005570856,1.566840811,-0.047050955,0.06949097,0.252891624,-0.001138262,0.004740515,-0.003620995,0,1,0,0,0,0,1,0,0,0,0,0.127466796,0,0,0,0.001694022,0.001694022,0.000713384,0.020613879,0.020613879,0.019149266,0.069389983,0.069389983,0.023518478,0.147561161,0.147561161,0.145373257,0.002094442,0.002094442,0.000775848,0.020843654,0.020843654,0.019523119,0.077506905,0.077506905,0.023635749,0.148242056,0.148242056,0.146543557,2.78E-06,2.78E-06,2.78E-06,2.78E-06,2.78E-06,2.78E-06,0.01,0.01,0.01,0.01,0.01,0.01,0,0,0,0,0,0,0,0,0,0,0,0,0.008860764,0.008860764,0.008860764,1.869953705,1.869953705,1,0,0,0,0,0,0,0.008860764,0.008860764,0,0,0,4,0,0,0,0,0,0,0,0,0,0,0,0,0,0,0.004112866,0,0,0,0.001707037,0.001707037,0.001707037,0.001707037,0,0,0,0,0,0,0,0
0.467284679,1.66858E+18,-0.003338243,0.038068935,0.227265202,-0.001822743,0.006751916,1.566175594,-0.045215173,0.089579975,0.400630663,-0.001633273,0.006472535,-0.004566258,0,0,0,0,0,0,0,0,0,0,0,0,-0.000313858,0.043687411,0.237225536,-0.00903486,0.051305082,1.553744617,0,0,0,0,0,0,-0.002182007,-0.002815247,0,0,0,1.545412758,0,0,0,0,0,0,0,0,0,0,0,0,0,0,0.416072767,0,0,0,6.401000023,5.947000027,5.767000198,1.450999975,0,0,0,0,0,0,0,0,-0.000313858,0.237225536,-0.043687411,-0.00903486,0.051305082,1.553744617,-0.002182007,-0.002815247,1.545412758,0.416072767,6.401000023,5.947000027,5.767000198,1.450999975,-0.080430491,0.172790376,0.629709191,0,0,0,-0.004139445,0.036834491,0.2199769,-0.00169215,0.006219031,1.566444269,-0.048763029,0.084113652,0.274665363,-0.00140437,0.005538498,-0.00408186,0,1,0,1,1,0,1,0,1,0,0,0.110418409,0,0.728949233,177.0907455,0.001814888,0.001814888,0.000656189,0.022863299,0.022863299,0.021116735,0.070223288,0.070223288,0.003658716,0.156691697,0.156691697,0.153892537,0.00228237,0.00228237,0.000807458,0.023146301,0.023146301,0.021572271,0.079389983,0.079389983,0.033518478,0.157561161,0.157561161,0.155373257,2.78E-06,2.78E-06,2.78E-06,2.78E-06,2.78E-06,2.78E-06,0.01,0.01,0.01,0.01,0.01,0.01,0,0,0,0,0,0,0,0,0,0,0,0,0.008860764,0.008860764,0.008860764,1.869953705,1.869953705,1,0,0,0,0,0,0,0.008860764,0.008860764,0,0,0,4,0,0,0,0,0,0,0,0,0,0,0,0,0,0,0.004112866,0,0,0,0.001707037,0.001707037,0.001707037,0.001707037,0,0,0,0,0,0,0,0
0.500315189,1.66858E+18,-0.003456497,0.036450208,0.240886265,-0.001933809,0.007576899,1.565659408,-0.036014372,0.085022402,0.397610422,-0.001733396,0.007549797,-0.005228697,0,0,0,0,0,0,0,0,0,0,0,0,0.000996044,0.044280999,0.245091874,-0.006051875,0.05188476,1.553672047,0,0,0,0,0,0,-0.003055573,0.010829926,0,0,0,1.5525097,0,0,0,0,0,0,0,0,0,0,0,0,0,0,0.416072767,0,0,0,6.401000023,5.947000027,5.767000198,1.450999975,0,0,0,0,0,0,0,0,0.000996044,0.245091874,-0.044280999,-0.006051875,0.05188476,1.553672047,-0.003055573,0.010829926,1.5525097,0.416072767,6.401000023,5.947000027,5.767000198,1.450999975,0.10275924,0.498343325,-0.097495271,0,0,0,-0.004788327,0.041331791,0.240565394,-0.001877185,0.006967667,1.566023385,-0.041789864,0.106191419,0.39738082,-0.001633273,0.006472535,-0.004566258,0,1,1,0,0,0,1,1,0,0,0,0.084286201,0.28757781,0,0,0.001569887,0.001569887,0.000628118,0.02536308,0.02536308,0.023139391,0.064021031,0.064021031,0.013634178,0.165601311,0.165601311,0.161609549,0.002431467,0.002431467,0.000676041,0.025711822,0.025711822,0.023828616,0.080223288,0.080223288,0.013658716,0.166691697,0.166691697,0.163892537,2.78E-06,2.78E-06,2.78E-06,2.78E-06,2.78E-06,2.78E-06,0.01,0.01,0.01,0.01,0.01,0.01,0,0,0,0,0,0,0,0,0,0,0,0,0.008860764,0.008860764,0.008860764,1.869953705,1.869953705,1,0,0,0,0,0,0,0.008860764,0.008860764,0,0,0,4,0,0,0,0,0,0,0,0,0,0,0,0,0,0,0.004112866,0,0,0,0.001707037,0.001707037,0.001707037,0.001707037,0,0,0,0,0,0,0,0
0.534128904,1.66858E+18,-0.003417235,0.040613294,0.254658401,-0.001929421,0.008492606,1.565176974,-0.027453701,0.106202531,0.395267437,-0.001623318,0.008725606,-0.005790839,0,0,0,0,0,0,0,0,0,0,0,0,0.00157844,0.045057705,0.262164002,0.002143839,0.052001727,1.553383945,0,0,0,0,0,0,-0.003055573,0.010829926,0,0,0,1.5525097,0,0,0,0,0,0,0,0,0,0,0,0,0,0,0.416072767,0,0,0,6.401000023,5.947000027,5.767000198,1.450999975,0,0,0,0,0,0,0,0,0.00157844,0.262164002,-0.045057705,0.002143839,0.052001727,1.553383945,-0.003055573,0.010829926,1.5525097,0.416072767,6.401000023,5.947000027,5.767000198,1.450999975,0.10275924,0.498343325,-0.097495271,0,0,0,-0.004599887,0.039561145,0.254085782,-0.001991588,0.007828559,1.565485118,-0.032589064,0.101633847,0.39436058,-0.001733396,0.007549797,-0.005228697,0,1,0,0,0,0,1,0,0,0,0,0.119425972,0,0,0,0.001696122,0.001696122,0.00062809,0.028110675,0.028110675,0.025463959,0.066450117,0.066450117,0.023513994,0.174256177,0.174256177,0.169395232,0.002097654,0.002097654,0.000676008,0.028539707,0.028539707,0.026129315,0.074021031,0.074021031,0.023634178,0.175601311,0.175601311,0.171609549,2.78E-06,2.78E-06,2.78E-06,2.78E-06,2.78E-06,2.78E-06,0.01,0.01,0.01,0.01,0.01,0.01,0,0,0,0,0,0,0,0,0,0,0,0,0.008860764,0.008860764,0.008860764,1.869953705,1.869953705,1,0,0,0,0,0,0,0.008860764,0.008860764,0,0,0,4,0,0,0,0,0,0,0,0,0,0,0,0,0,0,0.004112866,0,0,0,0.001707037,0.001707037,0.001707037,0.001707037,0,0,0,0,0,0,0,0
0.566921711,1.66858E+18,-0.003166698,0.044670558,0.2642676,-0.001758114,0.009418407,1.564630603,-0.019255361,0.123848701,0.310794964,-0.001225946,0.009844906,-0.006433165,0,0,0,0,0,0,0,0,0,0,0,0,0.001172508,0.045611237,0.281715829,0.011570467,0.046961744,1.552341212,0,0,0,0,0,0,-0.003055573,0.010829926,0,0,0,1.5525097,0,0,0,0,0,0,0,0,0,0,0,0,0,0,0.30035719,0,0,0,6.386000156,5.960000038,5.768000126,1.452000022,0,0,0,0,0,0,0,0,0.001172508,0.281715829,-0.045611237,0.011570467,0.046961744,1.552341212,-0.003055573,0.010829926,1.5525097,0.30035719,6.386000156,5.960000038,5.768000126,1.452000022,0.10275924,0.498343325,-0.097495271,0,0,0,-0.00427527,0.044430236,0.267779818,-0.001983532,0.00878346,1.564983946,-0.024028393,0.122813976,0.392017595,-0.001623318,0.008725606,-0.005790839,0,1,0,1,1,0,1,0,1,0,0,0.155163725,0,0.472533697,177.7868412,0.001803084,0.001803084,0.000581856,0.031099422,0.031099422,0.027948292,0.067910661,0.067910661,0.003658536,0.182621715,0.182621715,0.176739771,0.002263732,0.002263732,0.000723308,0.031625387,0.031625387,0.028751857,0.076450117,0.076450117,0.033513994,0.184256177,0.184256177,0.179395232,2.78E-06,2.78E-06,2.78E-06,2.78E-06,2.78E-06,2.78E-06,0.01,0.01,0.01,0.01,0.01,0.01,0,0,0,0,0,0,0,0,0,0,0,0,0.008860764,0.008860764,0.008860764,1.869953705,1.869953705,1,0,0,0,0,0,0,0.008860764,0.008860764,0,0,0,4,0,0,0,0,0,0,0,0,0,0,0,0,0,0,0.004112866,0,0,0,0.001707037,0.001707037,0.001707037,0.001707037,0,0,0,0,0,0,0,0
0.600964785,1.66858E+18,-0.002745987,0.042253115,0.275953075,-0.001434863,0.010349813,1.563926832,-0.011557466,0.111468541,0.308662083,-0.000589818,0.010898801,-0.007315544,0,0,0,0,0,0,0,0,0,0,0,0,0.000716757,0.046972551,0.296264222,0.018041097,0.042616315,1.551226194,0,0,0,0,0,0,-0.002494812,0.012332916,0,0,0,1.552659939,0,0,0,0,0,0,0,0,0,0,0,0,0,0,0.30035719,0,0,0,6.386000156,5.960000038,5.768000126,1.452000022,0,0,0,0,0,0,0,0,0.000716757,0.296264222,-0.046972551,0.018041097,0.042616315,1.551226194,-0.002494812,0.012332916,1.552659939,0.30035719,6.386000156,5.960000038,5.768000126,1.452000022,0.10275924,0.498343325,-0.097495271,0,0,0,-0.003751455,0.049075706,0.274573268,-0.001798979,0.009746571,1.564416165,-0.015830053,0.140460145,0.307545122,-0.001225946,0.009844906,-0.006433165,0,1,1,0,0,0,1,1,0,0,0,0.229847096,0.346518029,0,0,0.001556234,0.001556234,0.000563652,0.03431836,0.03431836,0.030338619,0.06269516,0.06269516,0.013633444,0.190663422,0.190663422,0.182851166,0.002398871,0.002398871,0.000601943,0.034959964,0.034959964,0.031534511,0.077910661,0.077910661,0.013658536,0.192621715,0.192621715,0.186739771,2.78E-06,2.78E-06,2.78E-06,2.78E-06,2.78E-06,2.78E-06,0.01,0.01,0.01,0.01,0.01,0.01,0,0,0,0,0,0,0,0,0,0,0,0,0.008860764,0.008860764,0.008860764,1.869953705,1.869953705,1,0,0,0,0,0,0,0.008860764,0.008860764,0,0,0,4,0,0,0,0,0,0,0,0,0,0,0,0,0,0,0.004112866,0,0,0,0.001707037,0.001707037,0.001707037,0.001707037,0,0,0,0,0,0,0,0
0.635939598,1.66858E+18,-0.002395552,0.046607683,0.287920953,-0.000986615,0.011232412,1.563281739,-0.005223876,0.129631819,0.308463653,0.000217491,0.011794787,-0.00803102,0,0,0,0,0,0,0,0,0,0,0,0,0.000509868,0.048157989,0.31301654,0.02172208,0.03643552,1.551546694,0,0,0,0,0,0,-0.002494812,0.012332916,0,0,0,1.552659939,0,0,0,0,0,0,0,0,0,0,0,0,0,0,0.30035719,0,0,0,6.386000156,5.960000038,5.768000126,1.452000022,0,0,0,0,0,0,0,0,0.000509868,0.31301654,-0.048157989,0.02172208,0.03643552,1.551546694,-0.002494812,0.012332916,1.552659939,0.30035719,6.386000156,5.960000038,5.768000126,1.452000022,0.10275924,0.498343325,-0.097495271,0,0,0,-0.003074147,0.04624559,0.286187647,-0.001454524,0.010713107,1.563682981,-0.008132158,0.128079985,0.305412241,-0.000589818,0.010898801,-0.007315544,0,1,0,0,0,0,1,0,0,0,0,0.217882105,0,0,0,0.001677693,0.001677693,0.000572458,0.037752171,0.037752171,0.033061307,0.065497929,0.065497929,0.023510905,0.1983478,0.1983478,0.189256821,0.002069539,0.002069539,0.000611996,0.038530047,0.038530047,0.034191731,0.07269516,0.07269516,0.023633444,0.200663422,0.200663422,0.192851166,2.78E-06,2.78E-06,2.78E-06,2.78E-06,2.78E-06,2.78E-06,0.01,0.01,0.01,0.01,0.01,0.01,0,0,0,0,0,0,0,0,0,0,0,0,0.008860764,0.008860764,0.008860764,1.869953705,1.869953705,1,0,0,0,0,0,0,0.008860764,0.008860764,0,0,0,4,0,0,0,0,0,0,0,0,0,0,0,0,0,0,0.004112866,0,0,0,0.001707037,0.001707037,0.001707037,0.001707037,0,0,0,0,0,0,0,0
0.667021275,1.66858E+18,-0.002044487,0.050957876,0.305977437,-0.000489533,0.012049501,1.562684666,0.000201694,0.145184707,0.414712948,0.001049905,0.012515207,-0.00861026,0,0,0,0,0,0,0,0,0,0,0,0,-0.000186656,0.049974696,0.32884614,0.021155388,0.030782261,1.553831668,0,0,0,0,0,0,-0.002494812,0.012332916,0,0,0,1.552659939,0,0,0,0,0,0,0,0,0,0,0,0,0,0,0.427531753,0,0,0,6.389999866,5.958000183,5.827000141,1.45599997,0,0,0,0,0,0,0,0,-0.000186656,0.32884614,-0.049974696,0.021155388,0.030782261,1.553831668,-0.002494812,0.012332916,1.552659939,0.427531753,6.389999866,5.958000183,5.827000141,1.45599997,0.10275924,0.498343325,-0.097495271,0,0,0,-0.002512592,0.051205601,0.29814891,-0.000979366,0.011625572,1.563014039,-0.001798568,0.146243263,0.305213811,0.000217491,0.011794787,-0.00803102,0,1,0,1,1,0,1,0,1,0,0,0.316291264,0,0.630607316,179.2894826,0.00178327,0.00178327,0.000532574,0.041381257,0.041381257,0.03587007,0.067293639,0.067293639,0.003658405,0.205643347,0.205643347,0.195129463,0.00223259,0.00223259,0.000668545,0.042317729,0.042317729,0.037204602,0.075497929,0.075497929,0.033510905,0.2083478,0.2083478,0.199256821,2.78E-06,2.78E-06,2.78E-06,2.78E-06,2.78E-06,2.78E-06,0.01,0.01,0.01,0.01,0.01,0.01,0,0,0,0,0,0,0,0,0,0,0,0,0.008860764,0.008860764,0.008860764,1.869953705,1.869953705,1,0,0,0,0,0,0,0.008860764,0.008860764,0,0,0,4,0,0,0,0,0,0,0,0,0,0,0,0,0,0,0.004112866,0,0,0,0.001707037,0.001707037,0.001707037,0.001707037,0,0,0,0,0,0,0,0
0.703046799,1.66858E+18,-0.001976796,0.047798064,0.321209616,3.36E-05,0.012720924,1.561978908,0.003643429,0.12675393,0.412758943,0.001865327,0.012939924,-0.009335136,0,0,0,0,0,0,0,0,0,0,0,0,4.73E-05,0.052332332,0.34465185,0.019748091,0.022989322,1.554336185,0,0,0,0,0,0,-0.003986359,0.012306213,0,0,0,1.550981497,0,0,0,0,0,0,0,0,0,0,0,0,0,0,0.427531753,0,0,0,6.389999866,5.958000183,5.827000141,1.45599997,0,0,0,0,0,0,0,0,4.73E-05,0.34465185,-0.052332332,0.019748091,0.022989322,1.554336185,-0.003986359,0.012306213,1.550981497,0.427531753,6.389999866,5.958000183,5.827000141,1.45599997,0.10275924,0.498343325,-0.097495271,0,0,0,-0.001980675,0.056074223,0.319747038,-0.000454536,0.012466674,1.562397658,0.003627002,0.161796151,0.411463106,0.001049905,0.012515207,-0.00861026,0,1,1,0,0,0,1,1,0,0,0,0.26045164,0.413496048,0,0,0.001543533,0.001543533,0.000520364,0.045181988,0.045181988,0.038362817,0.062498015,0.062498015,0.01363292,0.212521567,0.212521567,0.1993393,0.002368825,0.002368825,0.00055283,0.04630071,0.04630071,0.040295109,0.077293639,0.077293639,0.013658405,0.215643347,0.215643347,0.205129463,2.78E-06,2.78E-06,2.78E-06,2.78E-06,2.78E-06,2.78E-06,0.01,0.01,0.01,0.01,0.01,0.01,0,0,0,0,0,0,0,0,0,0,0,0,0.008860764,0.008860764,0.008860764,1.869953705,1.869953705,1,0,0,0,0,0,0,0.008860764,0.008860764,0,0,0,4,0,0,0,0,0,0,0,0,0,0,0,0,0,0,0.004112866,0,0,0,0.001707037,0.001707037,0.001707037,0.001707037,0,0,0,0,0,0,0,0
0.737343788,1.66858E+18,-0.001416713,0.052543278,0.336542711,0.000540221,0.013272555,1.561340392,0.008702723,0.144406997,0.412606323,0.00259407,0.013137178,-0.009892344,0,0,0,0,0,0,0,0,0,0,0,0,0.000231284,0.053593832,0.361903418,0.017012838,0.017731311,1.553730257,0,0,0,0,0,0,-0.003986359,0.012306213,0,0,0,1.550981497,0,0,0,0,0,0,0,0,0,0,0,0,0,0,0.427531753,0,0,0,6.389999866,5.958000183,5.827000141,1.45599997,0,0,0,0,0,0,0,0,0.000231284,0.361903418,-0.053593832,0.017012838,0.017731311,1.553730257,-0.003986359,0.012306213,1.550981497,0.427531753,6.389999866,5.958000183,5.827000141,1.45599997,0.10275924,0.498343325,-0.097495271,0,0,0,-0.001798259,0.052300052,0.334914084,9.58E-05,0.013152254,1.561667737,0.007068737,0.143365374,0.4095091,0.001865327,0.012939924,-0.009335136,0,1,0,0,0,0,1,0,0,0,0,0.279281837,0,0,0,0.001665788,0.001665788,0.000534688,0.049127112,0.049127112,0.041240349,0.06542486,0.06542486,0.023508737,0.218957941,0.218957941,0.204199346,0.002051453,0.002051453,0.000569025,0.050452594,0.050452594,0.043014273,0.072498015,0.072498015,0.02363292,0.222521567,0.222521567,0.2093393,2.78E-06,2.78E-06,2.78E-06,2.78E-06,2.78E-06,2.78E-06,0.01,0.01,0.01,0.01,0.01,0.01,0,0,0,0,0,0,0,0,0,0,0,0,0.008860764,0.008860764,0.008860764,1.869953705,1.869953705,1,0,0,0,0,0,0,0.008860764,0.008860764,0,0,0,4,0,0,0,0,0,0,0,0,0,0,0,0,0,0,0.004112866,0,0,0,0.001707037,0.001707037,0.001707037,0.001707037,0,0,0,0,0,0,0,0
0.766955137,1.66858E+18,-0.000655201,0.057105533,0.349654832,0.001013796,0.013814907,1.56069727,0.013900104,0.1587595,0.376777959,0.00321647,0.01330511,-0.010416379,0,0,0,0,0,0,0,0,0,0,0,0,0.001000892,0.054994436,0.37241685,0.014236761,0.017382658,1.553906865,0,0,0,0,0,0,-0.003986359,0.012306213,0,0,0,1.550981497,0,0,0,0,0,0,0,0,0,0,0,0,0,0,0.372159029,0,0,0,6.389999866,5.949999809,5.781000137,1.457000017,0,0,0,0,0,0,0,0,0.001000892,0.37241685,-0.054994436,0.014236761,0.017382658,1.553906865,-0.003986359,0.012306213,1.550981497,0.372159029,6.389999866,5.949999809,5.781000137,1.457000017,0.10275924,0.498343325,-0.097495271,0,0,0,-0.001069534,0.057633702,0.350242091,0.00062669,0.013710461,1.561010647,0.012128031,0.161018441,0.409356481,0.00259407,0.013137178,-0.009892344,0,1,0,1,1,0,1,0,1,0,0,0.230152374,0,0.191776123,178.6278809,0.001773213,0.001773213,0.00049877,0.053186317,0.053186317,0.044114121,0.067309836,0.067309836,0.003658314,0.224932804,0.224932804,0.208506419,0.002216847,0.002216847,0.000631376,0.054743359,0.054743359,0.046149987,0.07542486,0.07542486,0.033508737,0.228957941,0.228957941,0.214199346,2.78E-06,2.78E-06,2.78E-06,2.78E-06,2.78E-06,2.78E-06,0.01,0.01,0.01,0.01,0.01,0.01,0,0,0,0,0,0,0,0,0,0,0,0,0.008860764,0.008860764,0.008860764,1.869953705,1.869953705,1,0,0,0,0,0,0,0.008860764,0.008860764,0,0,0,4,0,0,0,0,0,0,0,0,0,0,0,0,0,0,0.004112866,0,0,0,0.001707037,0.001707037,0.001707037,0.001707037,0,0,0,0,0,0,0,0
0.800254583,1.66858E+18,-0.000277226,0.052317123,0.364014922,0.001427943,0.014527261,1.559999807,0.016721232,0.131442075,0.375284533,0.003700061,0.013728701,-0.010991418,0,0,0,0,0,0,0,0,0,0,0,0,0.002888619,0.056211752,0.395676017,0.011132854,0.023028056,1.554400655,0,0,0,0,0,0,-0.003978729,0.009475708,0,0,0,1.553959143,0,0,0,0,0,0,0,0,0,0,0,0,0,0,0.372159029,0,0,0,6.389999866,5.949999809,5.781000137,1.457000017,0,0,0,0,0,0,0,0,0.002888619,0.395676017,-0.056211752,0.011132854,0.023028056,1.554400655,-0.003978729,0.009475708,1.553959143,0.372159029,6.389999866,5.949999809,5.781000137,1.457000017,0.10275924,0.498343325,-0.097495271,0,0,0,-0.000134776,0.062674373,0.362159934,0.001121011,0.014258411,1.560350058,0.017325412,0.175370944,0.373528117,0.00321647,0.01330511,-0.010416379,0,1,1,0,0,0,1,1,0,0,0,0.35273615,0.503615566,0,0,0.001538236,0.001538236,0.00049041,0.057326942,0.057326942,0.046408493,0.062592238,0.062592238,0.013632554,0.230432078,0.230432078,0.210802781,0.002356373,0.002356373,0.000519142,0.05913999,0.05913999,0.049266472,0.077309836,0.077309836,0.013658314,0.234932804,0.234932804,0.218506419,2.78E-06,2.78E-06,2.78E-06,2.78E-06,2.78E-06,2.78E-06,0.01,0.01,0.01,0.01,0.01,0.01,0,0,0,0,0,0,0,0,0,0,0,0,0.008860764,0.008860764,0.008860764,1.869953705,1.869953705,1,0,0,0,0,0,0,0.008860764,0.008860764,0,0,0,4,0,0,0,0,0,0,0,0,0,0,0,0,0,0,0.004112866,0,0,0,0.001707037,0.001707037,0.001707037,0.001707037,0,0,0,0,0,0,0,0
0.834355831,1.66858E+18,0.001189308,0.056769591,0.378853718,0.001851735,0.015275881,1.559344603,0.023802783,0.147170465,0.376831925,0.00416378,0.014177819,-0.011457033,0,0,0,0,0,0,0,0,0,0,0,0,0.004880321,0.055878139,0.418015124,0.010684681,0.023830719,1.553760794,0,0,0,0,0,0,-0.003978729,0.009475708,0,0,0,1.553959143,0,0,0,0,0,0,0,0,0,0,0,0,0,0,0.372159029,0,0,0,6.389999866,5.949999809,5.781000137,1.457000017,0,0,0,0,0,0,0,0,0.004880321,0.418015124,-0.055878139,0.010684681,0.023830719,1.553760794,-0.003978729,0.009475708,1.553959143,0.372159029,6.389999866,5.949999809,5.781000137,1.457000017,0.10275924,0.498343325,-0.097495271,0,0,0,0.000337237,0.056975383,0.376470243,0.001551278,0.014984884,1.559633426,0.02014654,0.14805352,0.372034691,0.003700061,0.013728701,-0.010991418,0,1,0,0,0,0,1,0,0,0,0,0.430967229,0,0,0,0.001661867,0.001661867,0.000508352,0.061514798,0.061514798,0.049181143,0.065528331,0.065528331,0.023507218,0.235447815,0.235447815,0.214191432,0.002045509,0.002045509,0.000539292,0.063607249,0.063607249,0.05172504,0.072592238,0.072592238,0.023632554,0.240432078,0.240432078,0.220802781,2.78E-06,2.78E-06,2.78E-06,2.78E-06,2.78E-06,2.78E-06,0.01,0.01,0.01,0.01,0.01,0.01,0,0,0,0,0,0,0,0,0,0,0,0,0.008860764,0.008860764,0.008860764,1.869953705,1.869953705,1,0,0,0,0,0,0,0.008860764,0.008860764,0,0,0,4,0,0,0,0,0,0,0,0,0,0,0,0,0,0,0.004112866,0,0,0,0.001707037,0.001707037,0.001707037,0.001707037,0,0,0,0,0,0,0,0
0.866963863,1.66858E+18,0.002741369,0.060931955,0.396422737,0.002376411,0.015891135,1.558537228,0.030234194,0.159410491,0.416749785,0.004747097,0.01439347,-0.012130478,0,0,0,0,0,0,0,0,0,0,0,0,0.005550513,0.056846953,0.44205922,0.01297104,0.019807936,1.550759998,0,0,0,0,0,0,-0.003978729,0.009475708,0,0,0,1.553959143,0,0,0,0,0,0,0,0,0,0,0,0,0,0,0.42080087,0,0,0,6.385000229,5.954999924,5.781000137,1.462000012,0,0,0,0,0,0,0,0,0.005550513,0.44205922,-0.056846953,0.01297104,0.019807936,1.550759998,-0.003978729,0.009475708,1.553959143,0.42080087,6.385000229,5.954999924,5.781000137,1.462000012,0.10275924,0.498343325,-0.097495271,0,0,0,0.002039823,0.061952131,0.391360618,0.001990527,0.015748475,1.558962702,0.027228091,0.163781909,0.373582083,0.00416378,0.014177819,-0.011457033,0,1,0,1,1,0,1,0,1,0,0,0.524527862,0,0.243447291,178.4518063,0.00177066,0.00177066,0.000475033,0.065715051,0.065715051,0.051869933,0.067409143,0.067409143,0.00365825,0.239978507,0.239978507,0.217082202,0.002212859,0.002212859,0.00060546,0.068108564,0.068108564,0.054707613,0.075528331,0.075528331,0.033507218,0.245447815,0.245447815,0.224191432,2.78E-06,2.78E-06,2.78E-06,2.78E-06,2.78E-06,2.78E-06,0.01,0.01,0.01,0.01,0.01,0.01,0,0,0,0,0,0,0,0,0,0,0,0,0.008860764,0.008860764,0.008860764,1.869953705,1.869953705,1,0,0,0,0,0,0,0.008860764,0.008860764,0,0,0,4,0,0,0,0,0,0,0,0,0,0,0,0,0,0,0.004112866,0,0,0,0.001707037,0.001707037,0.001707037,0.001707037,0,0,0,0,0,0,0,0
0.90026927,1.66858E+18,0.002929384,0.055234072,0.413811966,0.003032511,0.016464715,1.557533706,0.037700458,0.127912066,0.44979946,0.005484243,0.014532349,-0.013061723,0,0,0,0,0,0,0,0,0,0,0,0,0.005791465,0.055973919,0.46739655,0.015854697,0.018880432,1.548104181,0,0,0,0,0,0,-0.003757477,0.012016296,0,0,0,1.553633392,0,0,0,0,0,0,0,0,0,0,0,0,0,0,0.42080087,0,0,0,6.385000229,5.954999924,5.781000137,1.462000012,0,0,0,0,0,0,0,0,0.005791465,0.46739655,-0.055973919,0.015854697,0.018880432,1.548104181,-0.003757477,0.012016296,1.553633392,0.42080087,6.385000229,5.954999924,5.781000137,1.462000012,0.353495069,0.49335109,0.902087839,0,0,0,0.003945562,0.066519722,0.410815556,0.002534648,0.016370917,1.558132879,0.042017363,0.175855527,0.44681938,0.004747097,0.01439347,-0.012130478,0,1,1,0,0,0,1,1,0,0,0,0.593782802,0.519785873,0,0,0.001537289,0.001537289,0.000469247,0.069893145,0.069893145,0.053720268,0.062667209,0.062667209,0.013632295,0.244029149,0.244029149,0.217741099,0.002354152,0.002354152,0.000495487,0.072606971,0.072606971,0.057587273,0.077409143,0.077409143,0.01365825,0.249978507,0.249978507,0.227082202,2.78E-06,2.78E-06,2.78E-06,2.78E-06,2.78E-06,2.78E-06,0.01,0.01,0.01,0.01,0.01,0.01,0,0,0,0,0,0,0,0,0,0,0,0,0.008860764,0.008860764,0.008860764,1.869953705,1.869953705,1,0,0,0,0,0,0,0.008860764,0.008860764,0,0,0,4,0,0,0,0,0,0,0,0,0,0,0,0,0,0,0.004112866,0,0,0,0.001707037,0.001707037,0.001707037,0.001707037,0,0,0,0,0,0,0,0
0.937265635,1.66858E+18,0.004706572,0.059069458,0.43202425,0.003746688,0.017098625,1.55655383,0.05087614,0.141339239,0.485573141,0.006255008,0.0147492,-0.013893277,0,0,0,0,0,0,0,0,0,0,0,0,0.007716289,0.055104309,0.494278941,0.017346546,0.02400589,1.546481482,0,0,0,0,0,0,-0.003757477,0.012016296,0,0,0,1.553633392,0,0,0,0,0,0,0,0,0,0,0,0,0,0,0.42080087,0,0,0,6.382999897,5.951000214,5.777999878,1.455000043,0,0,0,0,0,0,0,0,0.007716289,0.494278941,-0.055104309,0.017346546,0.02400589,1.546481482,-0.003757477,0.012016296,1.553633392,0.42080087,6.382999897,5.951000214,5.777999878,1.455000043,0.353495069,0.49335109,0.902087839,0,0,0,0.004382452,0.059771892,0.429306441,0.003215319,0.016949127,1.557098316,0.049483627,0.144357103,0.479869055,0.005484243,0.014532349,-0.013061723,0,1,0,0,0,0,1,0,0,0,0,0.509562513,0,0,0,0.001661581,0.001661581,0.000489644,0.074015689,0.074015689,0.056186339,0.065588594,0.065588594,0.023506138,0.247611049,0.247611049,0.219939514,0.002045076,0.002045076,0.000518285,0.077066085,0.077066085,0.059531178,0.072667209,0.072667209,0.023632295,0.254029149,0.254029149,0.227741099,2.78E-06,2.78E-06,2.78E-06,2.78E-06,2.78E-06,2.78E-06,0.01,0.01,0.01,0.01,0.01,0.01,0,0,0,0,0,0,0,0,0,0,0,0,0.008860764,0.008860764,0.008860764,1.869953705,1.869953705,1,0,0,0,0,0,0,0.008860764,0.008860764,0,0,0,4,0,0,0,0,0,0,0,0,0,0,0,0,0,0,0.004112866,0,0,0,0.001707037,0.001707037,0.001707037,0.001707037,0,0,0,0,0,0,0,0
0.967939854,1.66858E+18,0.007128401,0.062289137,0.452495044,0.004534143,0.017941819,1.555466318,0.064930503,0.150211594,0.516969148,0.007077987,0.015248931,-0.014830646,0,0,0,0,0,0,0,0,0,0,0,0,0.009248645,0.055219754,0.522310665,0.017825792,0.026012798,1.545420274,0,0,0,0,0,0,-0.003757477,0.012016296,0,0,0,1.553633392,0,0,0,0,0,0,0,0,0,0,0,0,0,0,0.515219042,0,0,0,6.382999897,5.951000214,5.777999878,1.455000043,0,0,0,0,0,0,0,0,0.009248645,0.522310665,-0.055219754,0.017825792,0.026012798,1.545420274,-0.003757477,0.012016296,1.553633392,0.515219042,6.382999897,5.951000214,5.777999878,1.455000043,0.353495069,0.49335109,0.902087839,0,0,0,0.006598829,0.06405485,0.448711181,0.003955189,0.017590265,1.556090721,0.062659309,0.157784276,0.515642735,0.006255008,0.0147492,-0.013893277,0,1,0,1,1,0,1,0,1,0,0,0.76241258,0,0.00218448,177.8132758,0.001770843,0.001770843,0.000458089,0.078051289,0.078051289,0.058517042,0.067453215,0.067453215,0.003658204,0.250741402,0.250741402,0.221742721,0.002213145,0.002213145,0.000587051,0.081451029,0.081451029,0.062154117,0.075588594,0.075588594,0.033506138,0.257611049,0.257611049,0.229939514,2.78E-06,2.78E-06,2.78E-06,2.78E-06,2.78E-06,2.78E-06,0.01,0.01,0.01,0.01,0.01,0.01,0,0,0,0,0,0,0,0,0,0,0,0,0.008860764,0.008860764,0.008860764,1.869953705,1.869953705,1,0,0,0,0,0,0,0.008860764,0.008860764,0,0,0,4,0,0,0,0,0,0,0,0,0,0,0,0,0,0,0.004112866,0,0,0,0.001707037,0.001707037,0.001707037,0.001707037,0,0,0,0,0,0,0,0
1.000304937,1.66858E+18,0.006275783,0.056721517,0.474292306,0.005305015,0.018579462,1.554341248,0.06305481,0.120542292,0.551230452,0.007823489,0.015429189,-0.015761799,0,0,0,0,0,0,0,0,0,0,0,0,0.008856756,0.05575739,0.549528863,0.016973273,0.021400772,1.54559294,0,0,0,0,0,0,-0.008396149,0.016864777,0,0,0,1.550294643,0,0,0,0,0,0,0,0,0,0,0,0,0,0,0.515219042,0,0,0,6.382999897,5.951000214,5.777999878,1.455000043,0,0,0,0,0,0,0,0,0.008856756,0.549528863,-0.05575739,0.016973273,0.021400772,1.54559294,-0.008396149,0.016864777,1.550294643,0.515219042,6.382999897,5.951000214,5.777999878,1.455000043,0.353495069,0.49335109,0.902087839,0,0,0,0.009489137,0.067570274,0.470228509,0.004770076,0.018450117,1.554971963,0.076713672,0.16665663,0.547038743,0.007077987,0.015248931,-0.014830646,0,1,1,0,0,0,1,1,0,0,0,0.828238142,0.507704799,0,0,0.0015376,0.0015376,0.000454076,0.081971257,0.081971257,0.059792726,0.062686525,0.062686525,0.01363211,0.253442659,0.253442659,0.221215378,0.002354881,0.002354881,0.000478602,0.085729285,0.085729285,0.064622684,0.077453215,0.077453215,0.013658204,0.260741402,0.260741402,0.231742721,2.78E-06,2.78E-06,2.78E-06,2.78E-06,2.78E-06,2.78E-06,0.01,0.01,0.01,0.01,0.01,0.01,0,0,0,0,0,0,0,0,0,0,0,0,0.008860764,0.008860764,0.008860764,1.869953705,1.869953705,1,0,0,0,0,0,0,0.008860764,0.008860764,0,0,0,4,0,0,0,0,0,0,0,0,0,0,0,0,0,0,0.004112866,0,0,0,0.001707037,0.001707037,0.001707037,0.001707037,0,0,0,0,0,0,0,0
1.033631802,1.66858E+18,0.008327675,0.060010122,0.496977781,0.005955386,0.018985083,1.553260398,0.073779363,0.132674345,0.589548297,0.008356043,0.01528062,-0.016569083,0,0,0,0,0,0,0,0,0,0,0,0,0.007260784,0.055663419,0.564063555,0.014061525,0.016723677,1.54483497,0,0,0,0,0,0,-0.008396149,0.016864777,0,0,0,1.550294643,0,0,0,0,0,0,0,0,0,0,0,0,0,0,0.515219042,0,0,0,6.382999897,5.953999996,5.781000137,1.453999996,0,0,0,0,0,0,0,0,0.007260784,0.564063555,-0.055663419,0.014061525,0.016723677,1.54483497,-0.008396149,0.016864777,1.550294643,0.515219042,6.382999897,5.953999996,5.781000137,1.453999996,0.353495069,0.49335109,0.902087839,0,0,0,0.008573996,0.061013677,0.493167815,0.005565798,0.019093768,1.553815855,0.074837979,0.136987329,0.581300046,0.007823489,0.015429189,-0.015761799,0,1,0,0,1,0,1,0,0,0,0,0.73461362,0,0,180.9827384,0.001662026,0.001662026,0.000476181,0.085750198,0.085750198,0.061848814,0.065599041,0.065599041,0.023505361,0.255741726,0.255741726,0.222602636,0.00204575,0.00204575,0.000503225,0.089871418,0.089871418,0.065926276,0.072686525,0.072686525,0.02363211,0.263442659,0.263442659,0.231215378,2.78E-06,2.78E-06,2.78E-06,2.78E-06,2.78E-06,2.78E-06,0.01,0.01,0.01,0.01,0.01,0.01,0,0,0,0,0,0,0,0,0,0,0,0,0.008860764,0.008860764,0.008860764,1.869953705,1.869953705,1,0,0,0,0,0,0,0.008860764,0.008860764,0,0,0,4,0,0,0,0,0,0,0,0,0,0,0,0,0,0,0.004112866,0,0,0,0.001707037,0.001707037,0.001707037,0.001707037,0,0,0,0,0,0,0,0
1.066886902,1.66858E+18,0.010298707,0.06290155,0.52135115,0.006277842,0.019114992,1.55204036,0.082625737,0.141376472,0.6308258,0.008414967,0.014771566,-0.017524973,0,0,0,0,0,0,0,0,0,0,0,0,0.007558426,0.055676753,0.590385625,0.007152966,0.011554726,1.54223393,0,0,0,0,0,0,-0.008396149,0.016864777,0,0,0,1.550294643,0,0,0,0,0,0,0,0,0,0,0,0,0,0,0.630306966,0,0,0,6.382999897,5.953999996,5.781000137,1.453999996,0,0,0,0,0,0,0,0,0.007558426,0.590385625,-0.055676753,0.007152966,0.011554726,1.54223393,-0.008396149,0.016864777,1.550294643,0.630306966,6.382999897,5.953999996,5.781000137,1.453999996,0.353495069,0.49335109,0.902087839,0,0,0,0.010983374,0.064706684,0.517130551,0.00623392,0.019494437,1.552708095,0.085562532,0.149119382,0.619617892,0.008356043,0.01528062,-0.016569083,0,1,0,1,0,0,1,0,1,0,0,0.759834976,0,0.055111332,0,0.001771317,0.001771317,0.000445851,0.089366421,0.089366421,0.063750656,0.067456323,0.067456323,0.003658171,0.25766906,0.25766906,0.223706819,0.002213885,0.002213885,0.000573802,0.093851658,0.093851658,0.068091537,0.075599041,0.075599041,0.033505361,0.265741726,0.265741726,0.232602636,2.78E-06,2.78E-06,2.78E-06,2.78E-06,2.78E-06,2.78E-06,0.01,0.01,0.01,0.01,0.01,0.01,0,0,0,0,0,0,0,0,0,0,0,0,0.008860764,0.008860764,0.008860764,1.869953705,1.869953705,1,0,0,0,0,0,0,0.008860764,0.008860764,0,0,0,4,0,0,0,0,0,0,0,0,0,0,0,0,0,0,0.004112866,0,0,0,0.001707037,0.001707037,0.001707037,0.001707037,0,0,0,0,0,0,0,0
1.100345135,1.66858E+18,0.009799826,0.056692879,0.546680433,0.006381536,0.019070446,1.550748257,0.079745935,0.110232468,0.664923293,0.008182033,0.01406418,-0.01852381,0,0,0,0,0,0,0,0,0,0,0,0,0.007772314,0.056197564,0.618883923,0.002995729,0.008788269,1.541921892,0,0,0,0,0,0,-0.001148224,0.015075684,0,0,0,1.545649859,0,0,0,0,0,0,0,0,0,0,0,0,0,0,0.630306966,0,0,0,6.382999897,5.953999996,5.781000137,1.453999996,0,0,0,0,0,0,0,0,0.007772314,0.618883923,-0.056197564,0.002995729,0.008788269,1.541921892,-0.001148224,0.015075684,1.545649859,0.630306966,6.382999897,5.953999996,5.781000137,1.453999996,0.353495069,0.49335109,0.902087839,0,0,0,0.013249285,0.067888183,0.542879836,0.006558341,0.019607378,1.551456194,0.094408906,0.157821509,0.660895394,0.008414967,0.014771566,-0.017524973,0,1,1,0,0,0,1,1,0,0,0,0.796456477,0.516873987,0,0,0.001537894,0.001537894,0.000443084,0.092802199,0.092802199,0.064440622,0.062681469,0.062681469,0.013631975,0.259257701,0.259257701,0.222468506,0.002355569,0.002355569,0.000466407,0.097648296,0.097648296,0.070086112,0.077456323,0.077456323,0.013658171,0.26766906,0.26766906,0.233706819,2.78E-06,2.78E-06,2.78E-06,2.78E-06,2.78E-06,2.78E-06,0.01,0.01,0.01,0.01,0.01,0.01,0,0,0,0,0,0,0,0,0,0,0,0,0.008860764,0.008860764,0.008860764,1.869953705,1.869953705,1,0,0,0,0,0,0,0.008860764,0.008860764,0,0,0,4,0,0,0,0,0,0,0,0,0,0,0,0,0,0,0.004112866,0,0,0,0.001707037,0.001707037,0.001707037,0.001707037,0,0,0,0,0,0,0,0
1.135216236,1.66858E+18,0.011961272,0.059822984,0.573600609,0.006424726,0.019021513,1.549535256,0.088550323,0.123160428,0.704419009,0.007884863,0.013393908,-0.019352933,0,0,0,0,0,0,0,0,0,0,0,0,0.00895965,0.056278937,0.650181259,0.002185103,0.00945897,1.541117955,0,0,0,0,0,0,-0.001148224,0.015075684,0,0,0,1.545649859,0,0,0,0,0,0,0,0,0,0,0,0,0,0,0.630306966,0,0,0,6.382999897,5.953999996,5.781000137,1.453999996,0,0,0,0,0,0,0,0,0.00895965,0.650181259,-0.056278937,0.002185103,0.00945897,1.541117955,-0.001148224,0.015075684,1.545649859,0.630306966,6.382999897,5.953999996,5.781000137,1.453999996,0.353495069,0.49335109,0.902087839,0,0,0,0.01265441,0.060641379,0.569345702,0.00665427,0.019539252,1.550130797,0.091529104,0.126677505,0.694992888,0.008182033,0.01406418,-0.01852381,0,1,0,0,0,0,1,0,0,0,0,0.837716526,0,0,0,0.001662281,0.001662281,0.0004664,0.096043861,0.096043861,0.066076855,0.06559213,0.06559213,0.023504796,0.260542297,0.260542297,0.223406931,0.002046137,0.002046137,0.000492314,0.101243913,0.101243913,0.07075192,0.072681469,0.072681469,0.023631975,0.269257701,0.269257701,0.232468506,2.78E-06,2.78E-06,2.78E-06,2.78E-06,2.78E-06,2.78E-06,0.01,0.01,0.01,0.01,0.01,0.01,0,0,0,0,0,0,0,0,0,0,0,0,0.008860764,0.008860764,0.008860764,1.869953705,1.869953705,1,0,0,0,0,0,0,0.008860764,0.008860764,0,0,0,4,0,0,0,0,0,0,0,0,0,0,0,0,0,0,0.004112866,0,0,0,0.001707037,0.001707037,0.001707037,0.001707037,0,0,0,0,0,0,0,0
1.166900396,1.66858E+18,0.014183922,0.062565558,0.602663143,0.006473476,0.019070839,1.548302538,0.096364336,0.132584886,0.752350275,0.007612334,0.012888341,-0.020160697,0,0,0,0,0,0,0,0,0,0,0,0,0.010480584,0.056015156,0.682459434,0.002647274,0.011972868,1.540193042,0,0,0,0,0,0,-0.001148224,0.015075684,0,0,0,1.545649859,0,0,0,0,0,0,0,0,0,0,0,0,0,0,0.630306966,0,0,0,6.383999825,5.953999996,5.77699995,1.458999991,0,0,0,0,0,0,0,0,0.010480584,0.682459434,-0.056015156,0.002647274,0.011972868,1.540193042,-0.001148224,0.015075684,1.545649859,0.630306966,6.383999825,5.953999996,5.77699995,1.458999991,0.353495069,0.49335109,0.902087839,0,0,0,0.015109336,0.064202416,0.597582402,0.006687555,0.019467976,1.548890158,0.100333492,0.139605464,0.734488604,0.007884863,0.013393908,-0.019352933,0,1,0,0,1,0,1,0,0,0,0,0.878897583,0,0,176.1316881,0.001771509,0.001771509,0.000530405,0.099081734,0.099081734,0.067564958,0.067448643,0.067448643,0.033087406,0.261558181,0.261558181,0.224155702,0.002214186,0.002214186,0.000564177,0.104625438,0.104625438,0.072460767,0.07559213,0.07559213,0.033504796,0.270542297,0.270542297,0.233406931,2.78E-06,2.78E-06,2.78E-06,2.78E-06,2.78E-06,2.78E-06,0.01,0.01,0.01,0.01,0.01,0.01,0,0,0,0,0,0,0,0,0,0,0,0,0.008860764,0.008860764,0.008860764,1.869953705,1.869953705,1,0,0,0,0,0,0,0.008860764,0.008860764,0,0,0,4,0,0,0,0,0,0,0,0,0,0,0,0,0,0,0.004112866,0,0,0,0.001707037,0.001707037,0.001707037,0.001707037,0,0,0,0,0,0,0,0
1.200839281,1.66858E+18,0.012890671,0.056614214,0.618844652,0.006637906,0.01912273,1.546983378,0.088162862,0.103784305,0.583238455,0.007500452,0.012415178,-0.021039614,0,0,0,0,0,0,0,0,0,0,0,0,0.01186163,0.055111809,0.715588583,0.005088381,0.012569628,1.539282234,0,0,0,0,0,0,-0.003765106,0.01807785,0,0,0,1.542811652,0,0,0,0,0,0,0,0,0,0,0,0,0,0,0.5609593,0,0,0,6.383999825,5.953999996,5.77699995,1.458999991,0,0,0,0,0,0,0,0,0.01186163,0.715588583,-0.055111809,0.005088381,0.012569628,1.539282234,-0.003765106,0.01807785,1.542811652,0.5609593,6.383999825,5.953999996,5.77699995,1.458999991,0.353495069,0.49335109,0.902087839,0,0,0,0.017592452,0.067259138,0.628242645,0.00672722,0.01950045,1.547630515,0.108147505,0.149029922,0.78241987,0.007612334,0.012888341,-0.020160697,0,1,1,1,0,0,1,1,1,0,0,0.902571284,0.506279337,1.019351964,0,0.00153798,0.00153798,0.00046085,0.101909962,0.101909962,0.067741767,0.062674227,0.062674227,0.003746505,0.262340511,0.262340511,0.222595855,0.002355771,0.002355771,0.000694259,0.107784048,0.107784048,0.07400861,0.077448643,0.077448643,0.043087406,0.271558181,0.271558181,0.234155702,2.78E-06,2.78E-06,2.78E-06,2.78E-06,2.78E-06,2.78E-06,0.01,0.01,0.01,0.01,0.01,0.01,0,0,0,0,0,0,0,0,0,0,0,0,0.008860764,0.008860764,0.008860764,1.869953705,1.869953705,1,0,0,0,0,0,0,0.008860764,0.008860764,0,0,0,4,0,0,0,0,0,0,0,0,0,0,0,0,0,0,0.004112866,0,0,0,0.001707037,0.001707037,0.001707037,0.001707037,0,0,0,0,0,0,0,0
1.237973452,1.66858E+18,0.015533656,0.059159183,0.644580631,0.006989512,0.019031473,1.545667076,0.097831118,0.115121745,0.619882774,0.007625769,0.011792118,-0.021865868,0,0,0,0,0,0,0,0,0,0,0,0,0.01340242,0.054012165,0.750415281,0.008705359,0.010500491,1.53737059,0,0,0,0,0,0,-0.003765106,0.01807785,0,0,0,1.542811652,0,0,0,0,0,0,0,0,0,0,0,0,0,0,0.5609593,0,0,0,6.383999825,5.953999996,5.77699995,1.458999991,0,0,0,0,0,0,0,0,0.01340242,0.750415281,-0.054012165,0.008705359,0.010500491,1.53737059,-0.003765106,0.01807785,1.542811652,0.5609593,6.383999825,5.953999996,5.77699995,1.458999991,0.353495069,0.49335109,0.902087839,0,0,0,0.016025819,0.060347775,0.638787093,0.006887921,0.019536569,1.546282058,0.099946031,0.120229341,0.613308049,0.007500452,0.012415178,-0.021039614,0,1,0,0,0,0,1,0,0,0,0,1.156605527,0,0,0,0.001662324,0.001662324,0.000459876,0.104526223,0.104526223,0.069010088,0.065585632,0.065585632,0.013714085,0.262923533,0.262923533,0.223361986,0.002046201,0.002046201,0.000485051,0.11071494,0.11071494,0.074125494,0.072674227,0.072674227,0.013746505,0.272340511,0.272340511,0.232595855,2.78E-06,2.78E-06,2.78E-06,2.78E-06,2.78E-06,2.78E-06,0.01,0.01,0.01,0.01,0.01,0.01,0,0,0,0,0,0,0,0,0,0,0,0,0.008860764,0.008860764,0.008860764,1.869953705,1.869953705,1,0,0,0,0,0,0,0.008860764,0.008860764,0,0,0,4,0,0,0,0,0,0,0,0,0,0,0,0,0,0,0.004112866,0,0,0,0.001707037,0.001707037,0.001707037,0.001707037,0,0,0,0,0,0,0,0
1.267317295,1.66858E+18,0.017941433,0.061328604,0.672254409,0.007393561,0.018859547,1.544534689,0.105112601,0.123237768,0.664499851,0.007807933,0.011105313,-0.022402513,0,0,0,0,0,0,0,0,0,0,0,0,0.01374096,0.053556893,0.784764816,0.00986431,0.009544212,1.539185891,0,0,0,0,0,0,-0.003765106,0.01807785,0,0,0,1.542811652,0,0,0,0,0,0,0,0,0,0,0,0,0,0,0.5609593,0,0,0,6.389999866,5.953000069,5.777999878,1.452000022,0,0,0,0,0,0,0,0,0.01374096,0.784764816,-0.053556893,0.00986431,0.009544212,1.539185891,-0.003765106,0.01807785,1.542811652,0.5609593,6.389999866,5.953000069,5.777999878,1.452000022,0.353495069,0.49335109,0.902087839,0,0,0,0.01899108,0.063270658,0.66574455,0.007243704,0.019424543,1.544938214,0.109614287,0.131566781,0.649952368,0.007625769,0.011792118,-0.021865868,0,1,0,0,1,0,1,0,0,0,0,1.233840955,0,0,176.0394966,0.001771515,0.001771515,0.000484643,0.106931367,0.106931367,0.070149978,0.067443203,0.067443203,0.023574051,0.263339956,0.263339956,0.224001989,0.002214195,0.002214195,0.000512684,0.113417,0.113417,0.07544225,0.075585632,0.075585632,0.023714085,0.272923533,0.272923533,0.233361986,2.78E-06,2.78E-06,2.78E-06,2.78E-06,2.78E-06,2.78E-06,0.01,0.01,0.01,0.01,0.01,0.01,0,0,0,0,0,0,0,0,0,0,0,0,0.008860764,0.008860764,0.008860764,1.869953705,1.869953705,1,0,0,0,0,0,0,0.008860764,0.008860764,0,0,0,4,0,0,0,0,0,0,0,0,0,0,0,0,0,0,0.004112866,0,0,0,0.001707037,0.001707037,0.001707037,0.001707037,0,0,0,0,0,0,0,0
1.306231976,1.66858E+18,0.015238314,0.060791072,0.696945003,0.007844992,0.018750731,1.543672457,0.089834371,0.119739878,0.612073224,0.008037101,0.010531106,-0.022554625,0,0,0,0,0,0,0,0,0,0,0,0,0.013106635,0.052651181,0.818070188,0.010929526,0.011022052,1.542198824,0,0,0,0,0,0,-0.006725311,0.050361633,0,0,0,1.54353829,0,0,0,0,0,0,0,0,0,0,0,0,0,0,0.600564749,0,0,0,6.389999866,5.953000069,5.777999878,1.452000022,0,0,0,0,0,0,0,0,0.013106635,0.818070188,-0.052651181,0.010929526,0.011022052,1.542198824,-0.006725311,0.050361633,1.54353829,0.600564749,6.389999866,5.953000069,5.777999878,1.452000022,0.358461265,0.524546077,0.410827263,0,0,0,0.021644332,0.065727944,0.694632641,0.007653825,0.019229724,1.543787938,0.11706131,0.140722637,0.678194093,0.007807933,0.011105313,-0.022402513,0,1,1,1,0,0,1,1,1,0,0,1.278566551,0.304641024,0.399880857,0,0.001537965,0.001537965,0.000451623,0.109129012,0.109129012,0.069924039,0.062670716,0.062670716,0.003658734,0.263620468,0.263620468,0.222382453,0.002355737,0.002355737,0.000585816,0.115892401,0.115892401,0.076621111,0.077443203,0.077443203,0.033574051,0.273339956,0.273339956,0.234001989,2.78E-06,2.78E-06,2.78E-06,2.78E-06,2.78E-06,2.78E-06,0.01,0.01,0.01,0.01,0.01,0.01,0,0,0,0,0,0,0,0,0,0,0,0,0.008860764,0.008860764,0.008860764,1.869953705,1.869953705,1,0,0,0,0,0,0,0.008860764,0.008860764,0,0,0,4,0,0,0,0,0,0,0,0,0,0,0,0,0,0,0.004112866,0,0,0,0.001707037,0.001707037,0.001707037,0.001707037,0,0,0,0,0,0,0,0
1.333914042,1.66858E+18,0.017445121,0.062748818,0.723417618,0.008297647,0.01857848,1.542934635,0.097542705,0.127234189,0.631942232,0.008255676,0.009912018,-0.022536339,0,0,0,0,0,0,0,0,0,0,0,0,0.01313145,0.053293019,0.84722628,0.011317108,0.008059606,1.543714362,0,0,0,0,0,0,-0.006725311,0.050361633,0,0,0,1.54353829,0,0,0,0,0,0,0,0,0,0,0,0,0,0,0.600564749,0,0,0,6.576000214,6.135000229,5.775000095,1.452000022,0,0,0,0,0,0,0,0,0.01313145,0.84722628,-0.053293019,0.011317108,0.008059606,1.543714362,-0.006725311,0.050361633,1.54353829,0.600564749,6.576000214,6.135000229,5.775000095,1.452000022,0.358461265,0.524546077,0.410827263,0,0,0,0.018431939,0.065073815,0.717575681,0.008112896,0.019101768,1.542920636,0.10178308,0.137224747,0.625767466,0.008037101,0.010531106,-0.022554625,0,1,0,0,1,0,1,0,0,0,0,1.201366211,0,0,181.7324028,0.001662294,0.001662294,0.000448598,0.111125116,0.111125116,0.070903251,0.065582942,0.065582942,0.013632008,0.263793372,0.263793372,0.223150222,0.002046156,0.002046156,0.00047252,0.118146148,0.118146148,0.076314175,0.072670716,0.072670716,0.013658734,0.273620468,0.273620468,0.232382453,2.78E-06,2.78E-06,2.78E-06,2.78E-06,2.78E-06,2.78E-06,0.01,0.01,0.01,0.01,0.01,0.01,0,0,0,0,0,0,0,0,0,0,0,0,0.008860764,0.008860764,0.008860764,1.869953705,1.869953705,1,0,0,0,0,0,0,0.008860764,0.008860764,0,0,0,4,0,0,0,0,0,0,0,0,0,0,0,0,0,0,0.004112866,0,0,0,0.001707037,0.001707037,0.001707037,0.001707037,0,0,0,0,0,0,0,0
1.366890907,1.66858E+18,0.01917758,0.064527122,0.752191071,0.008702277,0.017677456,1.54242128,0.102123027,0.132907017,0.662083471,0.008406918,0.008473178,-0.022228068,0,0,0,0,0,0,0,0,0,0,0,0,0.012301865,0.053504869,0.885253532,0.010716225,-0.001482133,1.545497209,0,0,0,0,0,0,-0.006725311,0.050361633,0,0,0,1.54353829,0,0,0,0,0,0,0,0,0,0,0,0,0,0,0.600564749,0,0,0,6.576000214,6.135000229,5.775000095,1.452000022,0,0,0,0,0,0,0,0,0.012301865,0.885253532,-0.053504869,0.010716225,-0.001482133,1.545497209,-0.006725311,0.050361633,1.54353829,0.600564749,6.576000214,6.135000229,5.775000095,1.452000022,0.358461265,0.524546077,0.410827263,0,0,0,0.020895689,0.067281372,0.744710596,0.008572837,0.018908881,1.542183424,0.109491414,0.144719058,0.645636474,0.008255676,0.009912018,-0.022536339,0,1,0,0,0,0,1,0,0,0,0,1.272464192,0,0,0,0.001771477,0.001771477,0.000471619,0.112927542,0.112927542,0.071777878,0.067441306,0.067441306,0.02350384,0.263884353,0.263884353,0.223827015,0.002214135,0.002214135,0.000498132,0.120185618,0.120185618,0.077328342,0.075582942,0.075582942,0.023632008,0.273793372,0.273793372,0.233150222,2.78E-06,2.78E-06,2.78E-06,2.78E-06,2.78E-06,2.78E-06,0.01,0.01,0.01,0.01,0.01,0.01,0,0,0,0,0,0,0,0,0,0,0,0,0.008860764,0.008860764,0.008860764,1.869953705,1.869953705,1,0,0,0,0,0,0,0.008860764,0.008860764,0,0,0,4,0,0,0,0,0,0,0,0,0,0,0,0,0,0,0.004112866,0,0,0,0.001707037,0.001707037,0.001707037,0.001707037,0,0,0,0,0,0,0,0
1.40028739,1.66858E+18,0.01573888,0.064866686,0.780530158,0.008979432,0.01650487,1.542001627,0.084142394,0.13176736,0.675871726,0.008403366,0.006792884,-0.021814697,0,0,0,0,0,0,0,0,0,0,0,0,0.011589215,0.054294206,0.898907741,0.008932295,-0.005793351,1.545233019,0,0,0,0,0,0,-0.006599426,0.058956146,0,0,0,1.545503401,0,0,0,0,0,0,0,0,0,0,0,0,0,0,0.672624461,0,0,0,6.576000214,6.135000229,5.775000095,1.452000022,0,0,0,0,0,0,0,0,0.011589215,0.898907741,-0.054294206,0.008932295,-0.005793351,1.545233019,-0.006599426,0.058956146,1.545503401,0.672624461,6.576000214,6.135000229,5.775000095,1.452000022,0.358461265,0.524546077,0.410827263,0,0,0,0.022780826,0.06924877,0.774488758,0.008982508,0.017959895,1.541680345,0.114071736,0.150391887,0.675777713,0.008406918,0.008473178,-0.022228068,0,1,1,1,0,0,1,1,1,0,0,1.293409511,0.293950492,0.016258041,0,0.001537938,0.001537938,0.000441523,0.114545643,0.114545643,0.071262466,0.0626699,0.0626699,0.00365812,0.263916353,0.263916353,0.222290958,0.002355674,0.002355674,0.000569641,0.12202009,0.12202009,0.078231147,0.077441306,0.077441306,0.03350384,0.273884353,0.273884353,0.233827015,2.78E-06,2.78E-06,2.78E-06,2.78E-06,2.78E-06,2.78E-06,0.01,0.01,0.01,0.01,0.01,0.01,0,0,0,0,0,0,0,0,0,0,0,0,0.008860764,0.008860764,0.008860764,1.869953705,1.869953705,1,0,0,0,0,0,0,0.008860764,0.008860764,0,0,0,4,0,0,0,0,0,0,0,0,0,0,0,0,0,0,0.004112866,0,0,0,0.001707037,0.001707037,0.001707037,0.001707037,0,0,0,0,0,0,0,0
1.433647156,1.66858E+18,0.017410461,0.066900132,0.809464142,0.008835187,0.014905358,1.541449379,0.090366177,0.137864284,0.696182503,0.00791867,0.004707313,-0.021591028,0,0,0,0,0,0,0,0,0,0,0,0,0.011640848,0.055423295,0.927895176,0.002418183,-0.012705967,1.54370263,0,0,0,0,0,0,-0.006599426,0.058956146,0,0,0,1.545503401,0,0,0,0,0,0,0,0,0,0,0,0,0,0,0.672624461,0,0,0,6.576000214,6.135000229,5.775000095,1.452000022,0,0,0,0,0,0,0,0,0.011640848,0.927895176,-0.055423295,0.002418183,-0.012705967,1.54370263,-0.006599426,0.058956146,1.545503401,0.672624461,6.576000214,6.135000229,5.775000095,1.452000022,0.358461265,0.524546077,0.410827263,0,0,0,0.018742772,0.069550346,0.803287453,0.009259544,0.016731299,1.541274471,0.096091103,0.149252229,0.689565968,0.008403366,0.006792884,-0.021814697,0,1,0,0,0,0,1,0,0,0,0,1.29956359,0,0,0,0.001662266,0.001662266,0.00043922,0.115989878,0.115989878,0.072033228,0.065582478,0.065582478,0.013631834,0.263909533,0.263909533,0.223147248,0.002046114,0.002046114,0.000462127,0.123660306,0.123660306,0.077624792,0.0726699,0.0726699,0.01365812,0.273916353,0.273916353,0.232290958,2.78E-06,2.78E-06,2.78E-06,2.78E-06,2.78E-06,2.78E-06,0.01,0.01,0.01,0.01,0.01,0.01,0,0,0,0,0,0,0,0,0,0,0,0,0.008860764,0.008860764,0.008860764,1.869953705,1.869953705,1,0,0,0,0,0,0,0.008860764,0.008860764,0,0,0,4,0,0,0,0,0,0,0,0,0,0,0,0,0,0,0.004112866,0,0,0,0.001707037,0.001707037,0.001707037,0.001707037,0,0,0,0,0,0,0,0
1.46694541,1.66858E+18,0.019483284,0.069505087,0.83962599,0.007979867,0.012922435,1.540982598,0.097432132,0.145562721,0.724909147,0.006653328,0.002288229,-0.021269434,0,0,0,0,0,0,0,0,0,0,0,0,0.01492692,0.060372832,0.961652081,-0.008748278,-0.019058483,1.544207592,0,0,0,0,0,0,-0.006599426,0.058956146,0,0,0,1.545503401,0,0,0,0,0,0,0,0,0,0,0,0,0,0,0.672624461,0,0,0,6.573999882,5.967000008,5.872000217,1.452000022,0,0,0,0,0,0,0,0,0.01492692,0.961652081,-0.060372832,-0.008748278,-0.019058483,1.544207592,-0.006599426,0.058956146,1.545503401,0.672624461,6.573999882,5.967000008,5.872000217,1.452000022,0.358461265,0.524546077,0.410827263,0,0,0,0.020621812,0.071787023,0.832898463,0.009099142,0.015062269,1.540729678,0.102314885,0.155349153,0.709876745,0.00791867,0.004707313,-0.021591028,0,1,0,0,1,0,1,0,0,0,0,1.337377431,0,0,177.1938524,0.001771452,0.001771452,0.000462985,0.117271454,0.117271454,0.072721712,0.067441122,0.067441122,0.023504391,0.263881322,0.263881322,0.223926452,0.002214096,0.002214096,0.000488511,0.125118053,0.125118053,0.078424906,0.075582478,0.075582478,0.023631834,0.273909533,0.273909533,0.233147248,2.78E-06,2.78E-06,2.78E-06,2.78E-06,2.78E-06,2.78E-06,0.01,0.01,0.01,0.01,0.01,0.01,0,0,0,0,0,0,0,0,0,0,0,0,0.008860764,0.008860764,0.008860764,1.869953705,1.869953705,1,0,0,0,0,0,0,0.008860764,0.008860764,0,0,0,4,0,0,0,0,0,0,0,0,0,0,0,0,0,0,0.004112866,0,0,0,0.001707037,0.001707037,0.001707037,0.001707037,0,0,0,0,0,0,0,0
1.500263453,1.66858E+18,0.015490748,0.067263538,0.860437082,0.006507129,0.010803814,1.540983211,0.077762122,0.13165993,0.564755429,0.004755957,-0.000169424,-0.020371895,0,0,0,0,0,0,0,0,0,0,0,0,0.015224159,0.062459492,0.99470865,-0.018560274,-0.021665836,1.546619117,0,0,0,0,0,0,-0.012226105,0.044288635,0,0,0,1.554305875,0,0,0,0,0,0,0,0,0,0,0,0,0,0,0.539722695,0,0,0,6.573999882,5.967000008,5.872000217,1.452000022,0,0,0,0,0,0,0,0,0.015224159,0.99470865,-0.062459492,-0.018560274,-0.021665836,1.546619117,-0.012226105,0.044288635,1.554305875,0.539722695,6.573999882,5.967000008,5.872000217,1.452000022,0.358461265,0.524546077,0.410827263,0,0,0,0.022930167,0.074648592,0.864017865,0.008201645,0.012998709,1.540273617,0.109380841,0.16304759,0.73860339,0.006653328,0.002288229,-0.021269434,0,1,1,1,0,0,1,1,1,0,0,1.353661855,0.438654124,1.025413584,0,0.001537924,0.001537924,0.000433805,0.118402019,0.118402019,0.072014011,0.062670006,0.062670006,0.003658134,0.263846521,0.263846521,0.222529271,0.002355641,0.002355641,0.000560847,0.126405801,0.126405801,0.079137799,0.077441122,0.077441122,0.033504391,0.273881322,0.273881322,0.233926452,2.78E-06,2.78E-06,2.78E-06,2.78E-06,2.78E-06,2.78E-06,0.01,0.01,0.01,0.01,0.01,0.01,0,0,0,0,0,0,0,0,0,0,0,0,0.008860764,0.008860764,0.008860764,1.869953705,1.869953705,1,0,0,0,0,0,0,0.008860764,0.008860764,0,0,0,4,0,0,0,0,0,0,0,0,0,0,0,0,0,0,0.004112866,0,0,0,0.001707037,0.001707037,0.001707037,0.001707037,0,0,0,0,0,0,0,0
1.534178257,1.66858E+18,0.017896095,0.07052435,0.88669947,0.00467459,0.008495746,1.540957856,0.088052749,0.143046201,0.586302238,0.002546298,-0.002724614,-0.01954849,0,0,0,0,0,0,0,0,0,0,0,0,0.016225062,0.064378116,1.027272026,-0.024518731,-0.02526263,1.549302712,0,0,0,0,0,0,-0.012226105,0.044288635,0,0,0,1.554305875,0,0,0,0,0,0,0,0,0,0,0,0,0,0,0.539722695,0,0,0,6.573999882,5.967000008,5.872000217,1.452000022,0,0,0,0,0,0,0,0,0.016225062,1.027272026,-0.064378116,-0.024518731,-0.02526263,1.549302712,-0.012226105,0.044288635,1.554305875,0.539722695,6.573999882,5.967000008,5.872000217,1.452000022,0.358461265,0.524546077,0.410827263,0,0,0,0.018281964,0.071943617,0.879490501,0.006665661,0.010798167,1.540304148,0.089710831,0.149144799,0.578449671,0.004755957,-0.000169424,-0.020371895,0,1,0,0,0,0,1,0,0,0,0,1.533409521,0,0,0,0.001662255,0.001662255,0.000432239,0.119393396,0.119393396,0.072645746,0.065582646,0.065582646,0.013631833,0.263817455,0.263817455,0.223500378,0.002046097,0.002046097,0.000454406,0.127536379,0.127536379,0.078336564,0.072670006,0.072670006,0.013658134,0.273846521,0.273846521,0.232529271,2.78E-06,2.78E-06,2.78E-06,2.78E-06,2.78E-06,2.78E-06,0.01,0.01,0.01,0.01,0.01,0.01,0,0,0,0,0,0,0,0,0,0,0,0,0.008860764,0.008860764,0.008860764,1.869953705,1.869953705,1,0,0,0,0,0,0,0.008860764,0.008860764,0,0,0,4,0,0,0,0,0,0,0,0,0,0,0,0,0,0,0.004112866,0,0,0,0.001707037,0.001707037,0.001707037,0.001707037,0,0,0,0,0,0,0,0
1.567195177,1.66858E+18,0.019879305,0.073792198,0.914511684,0.002927968,0.006033761,1.541242594,0.095065083,0.152846746,0.618227969,0.000530416,-0.00533449,-0.01837361,0,0,0,0,0,0,0,0,0,0,0,0,0.015272894,0.06662152,1.062461562,-0.023719613,-0.028465721,1.553095617,0,0,0,0,0,0,-0.012226105,0.044288635,0,0,0,1.554305875,0,0,0,0,0,0,0,0,0,0,0,0,0,0,0.539722695,0,0,0,6.573999882,6.129000187,7.619999886,1.672999978,0,0,0,0,0,0,0,0,0.015272894,1.062461562,-0.06662152,-0.023719613,-0.028465721,1.553095617,-0.012226105,0.044288635,1.554305875,0.539722695,6.573999882,6.129000187,7.619999886,1.672999978,0.358461265,0.524546077,0.410827263,0,0,0,0.021030332,0.075583971,0.906471116,0.004759467,0.008404925,1.540306239,0.100001458,0.16053107,0.59999648,0.002546298,-0.002724614,-0.01954849,0,1,0,0,1,0,1,0,0,0,0,1.617431973,0,0,202.2665835,0.001771444,0.001771444,0.00045673,0.120257358,0.120257358,0.073213471,0.067441314,0.067441314,0.023504217,0.263804154,0.263804154,0.224394784,0.002214083,0.002214083,0.000481552,0.128522696,0.128522696,0.078997124,0.075582646,0.075582646,0.023631833,0.273817455,0.273817455,0.233500378,2.78E-06,2.78E-06,2.78E-06,2.78E-06,2.78E-06,2.78E-06,0.01,0.01,0.01,0.01,0.01,0.01,0,0,0,0,0,0,0,0,0,0,0,0,0.008860764,0.008860764,0.008860764,1.869953705,1.869953705,1,0,0,0,0,0,0,0.008860764,0.008860764,0,0,0,4,0,0,0,0,0,0,0,0,0,0,0,0,0,0,0.004112866,0,0,0,0.001707037,0.001707037,0.001707037,0.001707037,0,0,0,0,0,0,0,0
1.606158972,1.66858E+18,0.014611384,0.07467095,0.947018304,0.001542581,0.003878971,1.541968833,0.070309701,0.151173723,0.700906487,-0.00100221,-0.007494016,-0.016699859,0,0,0,0,0,0,0,0,0,0,0,0,0.014820295,0.066708991,1.100767141,-0.018736607,-0.024695152,1.556739951,0,0,0,0,0,0,-0.018081665,0.065677643,0,0,0,1.550163946,0,0,0,0,0,0,0,0,0,0,0,0,0,0,0.705145063,0,0,0,6.573999882,6.129000187,7.619999886,1.672999978,0,0,0,0,0,0,0,0,0.014820295,1.100767141,-0.066708991,-0.018736607,-0.024695152,1.556739951,-0.018081665,0.065677643,1.550163946,0.705145063,6.573999882,6.129000187,7.619999886,1.672999978,0.358461265,0.524546077,0.410827263,0,0,0,0.023247286,0.079178504,0.93534752,0.002945648,0.005855945,1.54063014,0.107013792,0.170331615,0.631922211,0.000530416,-0.00533449,-0.01837361,0,1,1,1,0,0,1,1,1,0,0,1.710962565,0.410557292,0.377532272,0,0.001537921,0.001537921,0.000428106,0.121005449,0.121005449,0.072388126,0.062670181,0.062670181,0.003658123,0.263814553,0.263814553,0.223136945,0.002355632,0.002355632,0.000554664,0.12937752,0.12937752,0.079589823,0.077441314,0.077441314,0.033504217,0.273804154,0.273804154,0.234394784,2.78E-06,2.78E-06,2.78E-06,2.78E-06,2.78E-06,2.78E-06,0.01,0.01,0.01,0.01,0.01,0.01,0,0,0,0,0,0,0,0,0,0,0,0,0.008860764,0.008860764,0.008860764,1.869953705,1.869953705,1,0,0,0,0,0,0,0.008860764,0.008860764,0,0,0,4,0,0,0,0,0,0,0,0,0,0,0,0,0,0,0.004112866,0,0,0,0.001707037,0.001707037,0.001707037,0.001707037,0,0,0,0,0,0,0,0
1.634212971,1.66858E+18,0.016614285,0.077710117,0.97785626,0.00047484,0.001718114,1.542601893,0.079938446,0.158812527,0.722597851,-0.002124197,-0.009567022,-0.015216186,0,0,0,0,0,0,0,0,0,0,0,0,0.014276204,0.067787161,1.120943586,-0.014390335,-0.025747082,1.55772435,0,0,0,0,0,0,-0.018081665,0.065677643,0,0,0,1.550163946,0,0,0,0,0,0,0,0,0,0,0,0,0,0,0.705145063,0,0,0,6.573999882,6.129000187,7.619999886,1.672999978,0,0,0,0,0,0,0,0,0.014276204,1.120943586,-0.067787161,-0.014390335,-0.025747082,1.55772435,-0.018081665,0.065677643,1.550163946,0.705145063,6.573999882,6.129000187,7.619999886,1.672999978,0.358461265,0.524546077,0.410827263,0,0,0,0.017154186,0.080001489,0.970610091,0.001509174,0.003629171,1.541412171,0.08225841,0.168658592,0.714600729,-0.00100221,-0.007494016,-0.016699859,0,1,0,0,0,0,1,0,0,0,0,1.562974954,0,0,0,0.001662253,0.001662253,0.000427094,0.121648839,0.121648839,0.072934614,0.065582797,0.065582797,0.013631779,0.263854705,0.263854705,0.224213306,0.002046094,0.002046094,0.000448723,0.13011329,0.13011329,0.078672567,0.072670181,0.072670181,0.013658123,0.273814553,0.273814553,0.233136945,2.78E-06,2.78E-06,2.78E-06,2.78E-06,2.78E-06,2.78E-06,0.01,0.01,0.01,0.01,0.01,0.01,0,0,0,0,0,0,0,0,0,0,0,0,0.008860764,0.008860764,0.008860764,1.869953705,1.869953705,1,0,0,0,0,0,0,0.008860764,0.008860764,0,0,0,4,0,0,0,0,0,0,0,0,0,0,0,0,0,0,0.004112866,0,0,0,0.001707037,0.001707037,0.001707037,0.001707037,0,0,0,0,0,0,0,0
1.666950226,1.66858E+18,0.01832582,0.08055649,1.010163058,1.59E-05,-0.000828976,1.543357372,0.086945628,0.16455159,0.75461655,-0.002542519,-0.011968665,-0.013645277,0,0,0,0,0,0,0,0,0,0,0,0,0.013714609,0.069595833,1.158795797,-0.005535066,-0.032697944,1.559290267,0,0,0,0,0,0,-0.018081665,0.065677643,0,0,0,1.550163946,0,0,0,0,0,0,0,0,0,0,0,0,0,0,0.705145063,0,0,0,6.571000099,6.131999969,7.620999813,1.667000055,0,0,0,0,0,0,0,0,0.013714609,1.158795797,-0.069595833,-0.005535066,-0.032697944,1.559290267,-0.018081665,0.065677643,1.550163946,0.705145063,6.571000099,6.131999969,7.620999813,1.667000055,0.358461265,0.524546077,0.410827263,0,0,0,0.019478046,0.083295283,1.002171092,0.000404033,0.001399214,1.542094687,0.091887155,0.176297396,0.736292093,-0.002124197,-0.009567022,-0.015216186,0,1,0,0,1,0,1,0,0,0,0,1.627292619,0,0,200.902839,0.001771443,0.001771443,0.000452131,0.122198213,0.122198213,0.073430777,0.067441433,0.067441433,0.023503971,0.263928994,0.263928994,0.225206085,0.002214082,0.002214082,0.000476442,0.130741973,0.130741973,0.079250179,0.075582797,0.075582797,0.023631779,0.273854705,0.273854705,0.234213306,2.78E-06,2.78E-06,2.78E-06,2.78E-06,2.78E-06,2.78E-06,0.01,0.01,0.01,0.01,0.01,0.01,0,0,0,0,0,0,0,0,0,0,0,0,0.008860764,0.008860764,0.008860764,1.869953705,1.869953705,1,0,0,0,0,0,0,0.008860764,0.008860764,0,0,0,4,0,0,0,0,0,0,0,0,0,0,0,0,0,0,0.004112866,0,0,0,0.001707037,0.001707037,0.001707037,0.001707037,0,0,0,0,0,0,0,0
1.700352192,1.66858E+18,0.011824758,0.080020206,1.024421707,8.62E-05,-0.003329943,1.544732572,0.043221927,0.15182008,0.431229289,-0.002376408,-0.014221193,-0.011373523,0,0,0,0,0,0,0,0,0,0,0,0,0.012310504,0.07159336,1.194517559,0.002294251,-0.033272159,1.562898433,0,0,0,0,0,0,-0.023761749,0.064929962,0,0,0,1.563830303,0,0,0,0,0,0,0,0,0,0,0,0,0,0,0.386799689,0,0,0,6.571000099,6.131999969,7.620999813,1.667000055,0,0,0,0,0,0,0,0,0.012310504,1.194517559,-0.07159336,0.002294251,-0.033272159,1.562898433,-0.023761749,0.064929962,1.563830303,0.386799689,6.571000099,6.131999969,7.620999813,1.667000055,-0.121889733,0.415220691,0.01207755,0,0,0,0.021156291,0.086272221,1.035323653,-6.88E-05,-0.001227932,1.542902529,0.082882637,0.17839228,0.755019135,-0.002542519,-0.011968665,-0.013645277,0,1,1,1,0,0,1,1,1,0,0,1.649236734,0.469679727,1.898521783,0,0.001537921,0.001537921,0.000423901,0.122663693,0.122663693,0.072540568,0.062670246,0.062670246,0.003658112,0.264040336,0.264040336,0.224059206,0.002355633,0.002355633,0.000550136,0.13127496,0.13127496,0.079774145,0.077441433,0.077441433,0.033503971,0.273928994,0.273928994,0.235206085,2.78E-06,2.78E-06,2.78E-06,2.78E-06,2.78E-06,2.78E-06,0.01,0.01,0.01,0.01,0.01,0.01,0,0,0,0,0,0,0,0,0,0,0,0,0.008860764,0.008860764,0.008860764,1.869953705,1.869953705,1,0,0,0,0,0,0,0.008860764,0.008860764,0,0,0,4,0,0,0,0,0,0,0,0,0,0,0,0,0,0,0.004112866,0,0,0,0.001707037,0.001707037,0.001707037,0.001707037,0,0,0,0,0,0,0,0
1.733624697,1.66858E+18,0.012783192,0.083281438,1.04780852,0.000264691,-0.005739443,1.545928645,0.037377474,0.156937315,0.44166902,-0.002101681,-0.016284371,-0.009420723,0,0,0,0,0,0,0,0,0,0,0,0,0.010987821,0.074489873,1.227319072,0.003923319,-0.03321545,1.565919487,0,0,0,0,0,0,-0.023761749,0.064929962,0,0,0,1.563830303,0,0,0,0,0,0,0,0,0,0,0,0,0,0,0.386799689,0,0,0,6.571000099,6.131999969,7.620999813,1.667000055,0,0,0,0,0,0,0,0,0.010987821,1.227319072,-0.074489873,0.003923319,-0.03321545,1.565919487,-0.023761749,0.064929962,1.563830303,0.386799689,6.571000099,6.131999969,7.620999813,1.667000055,-0.121889733,0.415220691,0.01207755,0,0,0,0.013197773,0.085311553,1.038802726,6.97E-06,-0.003803982,1.544353454,0.039158936,0.16566077,0.431631874,-0.002376408,-0.014221193,-0.011373523,0,1,0,0,0,0,1,0,0,0,0,1.957349143,0,0,0,0.001662254,0.001662254,0.000423296,0.123054786,0.123054786,0.073040339,0.06558284,0.06558284,0.013631733,0.264190386,0.264190386,0.22521387,0.002046095,0.002046095,0.000444532,0.131722992,0.131722992,0.078795596,0.072670246,0.072670246,0.013658112,0.274040336,0.274040336,0.234059206,2.78E-06,2.78E-06,2.78E-06,2.78E-06,2.78E-06,2.78E-06,0.01,0.01,0.01,0.01,0.01,0.01,0,0,0,0,0,0,0,0,0,0,0,0,0.008860764,0.008860764,0.008860764,1.869953705,1.869953705,1,0,0,0,0,0,0,0.008860764,0.008860764,0,0,0,4,0,0,0,0,0,0,0,0,0,0,0,0,0,0,0.004112866,0,0,0,0.001707037,0.001707037,0.001707037,0.001707037,0,0,0,0,0,0,0,0
1.766893625,1.66858E+18,0.01335589,0.086603878,1.072456598,0.000435115,-0.007963634,1.547214605,0.030717678,0.161602449,0.465004765,-0.001846543,-0.018068237,-0.007439678,0,0,0,0,0,0,0,0,0,0,0,0,0.010932672,0.078041675,1.258400714,0.003839348,-0.031765241,1.567383327,0,0,0,0,0,0,-0.023761749,0.064929962,0,0,0,1.563830303,0,0,0,0,0,0,0,0,0,0,0,0,0,0,0.386799689,0,0,0,6.56799984,6.129000187,7.622000217,1.669999957,0,0,0,0,0,0,0,0,0.010932672,1.258400714,-0.078041675,0.003839348,-0.031765241,1.567383327,-0.023761749,0.064929962,1.563830303,0.386799689,6.56799984,6.129000187,7.622000217,1.669999957,-0.121889733,0.415220691,0.01207755,0,0,0,0.013961391,0.08874336,1.062537531,0.000194635,-0.006282255,1.545614621,0.033314483,0.170778005,0.442071605,-0.002101681,-0.016284371,-0.009420723,0,1,0,0,1,0,1,0,0,0,0,2.030307877,0,0,200.0499032,0.001771444,0.001771444,0.000448734,0.123380347,0.123380347,0.073499309,0.067441457,0.067441457,0.023503776,0.264379715,0.264379715,0.226275104,0.002214084,0.002214084,0.000472672,0.132096105,0.132096105,0.079330009,0.07558284,0.07558284,0.023631733,0.274190386,0.274190386,0.23521387,2.78E-06,2.78E-06,2.78E-06,2.78E-06,2.78E-06,2.78E-06,0.01,0.01,0.01,0.01,0.01,0.01,0,0,0,0,0,0,0,0,0,0,0,0,0.008860764,0.008860764,0.008860764,1.869953705,1.869953705,1,0,0,0,0,0,0,0.008860764,0.008860764,0,0,0,4,0,0,0,0,0,0,0,0,0,0,0,0,0,0,0.004112866,0,0,0,0.001707037,0.001707037,0.001707037,0.001707037,0,0,0,0,0,0,0,0
1.800982475,1.66858E+18,0.003643696,0.068353423,1.08680762,0.000772997,-0.009899681,1.549553671,-0.018687963,0.074000276,0.280188473,-0.001424553,-0.019477326,-0.004240284,0,0,0,0,0,0,0,0,0,0,0,0,0.008658095,0.080687425,1.289945574,0.006414258,-0.028736735,1.570010727,0,0,0,0,0,0,-0.041500092,-0.033760071,0,0,0,1.59736916,0,0,0,0,0,0,0,0,0,0,0,0,0,0,0.251857581,0,0,0,6.56799984,6.129000187,7.622000217,1.669999957,0,0,0,0,0,0,0,0,0.008658095,1.289945574,-0.080687425,0.006414258,-0.028736735,1.570010727,-0.041500092,-0.033760071,1.59736916,0.251857581,6.56799984,6.129000187,7.622000217,1.669999957,-0.121889733,0.415220691,0.01207755,0,0,0,0.014312096,0.092221305,1.087963466,0.000373563,-0.008565908,1.546966616,0.026654687,0.175443139,0.46540735,-0.001846543,-0.018068237,-0.007439678,0,1,1,1,0,0,1,1,1,0,0,2.086149417,1.301287937,1.101055199,0,0.001537921,0.001537921,0.000420791,0.123648571,0.123648571,0.072578857,0.062670245,0.062670245,0.003658104,0.264607988,0.264607988,0.225199731,0.002355634,0.002355634,0.000546793,0.13240361,0.13240361,0.079820453,0.077441457,0.077441457,0.033503776,0.274379715,0.274379715,0.236275104,2.78E-06,2.78E-06,2.78E-06,2.78E-06,2.78E-06,2.78E-06,0.01,0.01,0.01,0.01,0.01,0.01,0,0,0,0,0,0,0,0,0,0,0,0,0.008860764,0.008860764,0.008860764,1.869953705,1.869953705,1,0,0,0,0,0,0,0.008860764,0.008860764,0,0,0,4,0,0,0,0,0,0,0,0,0,0,0,0,0,0,0.004112866,0,0,0,0.001707037,0.001707037,0.001707037,0.001707037,0,0,0,0,0,0,0,0
1.835968733,1.66858E+18,0.003534688,0.073528389,1.106735619,0.001317327,-0.012108268,1.551033219,-0.020251633,0.098487319,0.292471207,-0.000801671,-0.021118527,-0.002236557,0,0,0,0,0,0,0,0,0,0,0,0,0.006053521,0.08425786,1.31913857,0.009659826,-0.034089493,1.571598798,0,0,0,0,0,0,-0.041500092,-0.033760071,0,0,0,1.59736916,0,0,0,0,0,0,0,0,0,0,0,0,0,0,0.251857581,0,0,0,6.56799984,6.129000187,7.622000217,1.669999957,0,0,0,0,0,0,0,0,0.006053521,1.31913857,-0.08425786,0.009659826,-0.034089493,1.571598798,-0.041500092,-0.033760071,1.59736916,0.251857581,6.56799984,6.129000187,7.622000217,1.669999957,-0.121889733,0.415220691,0.01207755,0,0,0,0.002953048,0.071050777,1.096153945,0.000725512,-0.010548926,1.549412328,-0.022750954,0.087840965,0.280591058,-0.001424553,-0.019477326,-0.004240284,0,1,0,0,0,0,1,0,0,0,0,2.315782973,0,0,0,0.001662254,0.001662254,0.000420485,0.123866985,0.123866985,0.07305762,0.065582832,0.065582832,0.013631699,0.264874119,0.264874119,0.226400433,0.002046096,0.002046096,0.000441433,0.132654081,0.132654081,0.078815709,0.072670245,0.072670245,0.013658104,0.274607988,0.274607988,0.235199731,2.78E-06,2.78E-06,2.78E-06,2.78E-06,2.78E-06,2.78E-06,0.01,0.01,0.01,0.01,0.01,0.01,0,0,0,0,0,0,0,0,0,0,0,0,0.008860764,0.008860764,0.008860764,1.869953705,1.869953705,1,0,0,0,0,0,0,0.008860764,0.008860764,0,0,0,4,0,0,0,0,0,0,0,0,0,0,0,0,0,0,0.004112866,0,0,0,0.001707037,0.001707037,0.001707037,0.001707037,0,0,0,0,0,0,0,0
1.87021327,1.66858E+18,0.002604073,0.078881353,1.128322317,0.002090506,-0.014965848,1.552570594,-0.025120227,0.120216507,0.320397494,3.74E-05,-0.023377682,-0.000244804,0,0,0,0,0,0,0,0,0,0,0,0,0.001852322,0.086242532,1.351423807,0.013349201,-0.045278399,1.572889135,0,0,0,0,0,0,-0.041500092,-0.033760071,0,0,0,1.59736916,0,0,0,0,0,0,0,0,0,0,0,0,0,0,0.251857581,0,0,0,6.563000202,6.130000114,7.622000217,1.66900003,0,0,0,0,0,0,0,0,0.001852322,1.351423807,-0.086242532,0.013349201,-0.045278399,1.572889135,-0.041500092,-0.033760071,1.59736916,0.251857581,6.563000202,6.130000114,7.622000217,1.66900003,-0.121889733,0.415220691,0.01207755,0,0,0,0.002791917,0.077041977,1.116491369,0.001290605,-0.012812219,1.550958667,-0.024314624,0.112328009,0.292873792,-0.000801671,-0.021118527,-0.002236557,0,1,0,0,1,0,1,0,0,0,0,2.433933814,0,0,199.4519731,0.001771445,0.001771445,0.000446219,0.124042466,0.124042466,0.073501723,0.067441444,0.067441444,0.023503631,0.265176409,0.265176409,0.227497554,0.002214085,0.002214085,0.000469881,0.132855361,0.132855361,0.079332823,0.075582832,0.075582832,0.023631699,0.274874119,0.274874119,0.236400433,2.78E-06,2.78E-06,2.78E-06,2.78E-06,2.78E-06,2.78E-06,0.01,0.01,0.01,0.01,0.01,0.01,0,0,0,0,0,0,0,0,0,0,0,0,0.008860764,0.008860764,0.008860764,1.869953705,1.869953705,1,0,0,0,0,0,0,0.008860764,0.008860764,0,0,0,4,0,0,0,0,0,0,0,0,0,0,0,0,0,0,0.004112866,0,0,0,0.001707037,0.001707037,0.001707037,0.001707037,0,0,0,0,0,0,0,0
1.90026021,1.66858E+18,-0.002138323,0.041158327,1.137065038,0.002876215,-0.018037034,1.554614007,-0.045492608,-0.044284368,0.102722993,0.000857931,-0.025774923,0.002288974,0,0,0,0,0,0,0,0,0,0,0,0,-0.000274435,0.08792441,1.365634071,0.013904382,-0.050257594,1.574503157,0,0,0,0,0,0,-0.018436432,-0.163444519,0,0,0,1.577877654,0,0,0,0,0,0,0,0,0,0,0,0,0,0,0.069656156,0,0,0,6.563000202,6.130000114,7.622000217,1.66900003,0,0,0,0,0,0,0,0,-0.000274435,1.365634071,-0.08792441,0.013904382,-0.050257594,1.574503157,-0.018436432,-0.163444519,1.577877654,0.069656156,6.563000202,6.130000114,7.622000217,1.66900003,-0.121889733,0.415220691,0.01207755,0,0,0,0.001699015,0.083119248,1.139008944,0.002091753,-0.015745104,1.552562434,-0.029183218,0.134057196,0.320800079,3.74E-05,-0.023377682,-0.000244804,0,1,1,1,0,0,1,1,1,0,0,2.337580333,2.335888678,1.294891848,0,0.001537922,0.001537922,0.000418487,0.124181253,0.124181253,0.07257189,0.06267023,0.06267023,0.003658097,0.26551268,0.26551268,0.22645397,0.002355635,0.002355635,0.000544318,0.133014583,0.133014583,0.079812027,0.077441444,0.077441444,0.033503631,0.275176409,0.275176409,0.237497554,2.78E-06,2.78E-06,2.78E-06,2.78E-06,2.78E-06,2.78E-06,0.01,0.01,0.01,0.01,0.01,0.01,0,0,0,0,0,0,0,0,0,0,0,0,0.008860764,0.008860764,0.008860764,1.869953705,1.869953705,1,0,0,0,0,0,0,0.008860764,0.008860764,0,0,0,4,0,0,0,0,0,0,0,0,0,0,0,0,0,0,0.004112866,0,0,0,0.001707037,0.001707037,0.001707037,0.001707037,0,0,0,0,0,0,0,0
1.933987617,1.66858E+18,-0.003615614,0.049288153,1.152247206,0.003433328,-0.021570593,1.556347776,-0.049096477,0.00984217,0.116391134,0.001409336,-0.028565142,0.004336464,0,0,0,0,0,0,0,0,0,0,0,0,-0.003152907,0.089888522,1.38936241,0.010856438,-0.059133018,1.577381235,0,0,0,0,0,0,-0.018436432,-0.163444519,0,0,0,1.577877654,0,0,0,0,0,0,0,0,0,0,0,0,0,0,0.069656156,0,0,0,6.563000202,6.130000114,7.622000217,1.66900003,0,0,0,0,0,0,0,0,-0.003152907,1.38936241,-0.089888522,0.010856438,-0.059133018,1.577381235,-0.018436432,-0.163444519,1.577877654,0.069656156,6.563000202,6.130000114,7.622000217,1.66900003,-0.121889733,0.415220691,0.01207755,0,0,0,-0.00372246,0.03991286,1.140495847,0.002904813,-0.018896198,1.554690306,-0.049555599,-0.030443679,0.103125578,0.000857931,-0.025774923,0.002288974,0,1,0,0,0,0,1,0,0,0,0,2.624888394,0,0,0,0.001662254,0.001662254,0.000418401,0.12428898,0.12428898,0.073045473,0.065582818,0.065582818,0.013631673,0.265880376,0.265880376,0.227670204,0.002046096,0.002046096,0.000439137,0.133138188,0.133138188,0.078801571,0.07267023,0.07267023,0.013658097,0.27551268,0.27551268,0.23645397,2.78E-06,2.78E-06,2.78E-06,2.78E-06,2.78E-06,2.78E-06,0.01,0.01,0.01,0.01,0.01,0.01,0,0,0,0,0,0,0,0,0,0,0,0,0.008860764,0.008860764,0.008860764,1.869953705,1.869953705,1,0,0,0,0,0,0,0.008860764,0.008860764,0,0,0,4,0,0,0,0,0,0,0,0,0,0,0,0,0,0,0.004112866,0,0,0,0.001707037,0.001707037,0.001707037,0.001707037,0,0,0,0,0,0,0,0
1.966843128,1.66858E+18,-0.005246955,0.05807649,1.168955794,0.003644237,-0.025300428,1.558178581,-0.052846718,0.058976933,0.14676163,0.001579997,-0.031456829,0.006419699,0,0,0,0,0,0,0,0,0,0,0,0,-0.004955111,0.091011277,1.41181853,0.005945065,-0.064285838,1.579438343,0,0,0,0,0,0,-0.018436432,-0.163444519,0,0,0,1.577877654,0,0,0,0,0,0,0,0,0,0,0,0,0,0,0.069656156,0,0,0,6.559000015,6.130000114,7.625,1.682000041,0,0,0,0,0,0,0,0,-0.004955111,1.41181853,-0.091011277,0.005945065,-0.064285838,1.579438343,-0.018436432,-0.163444519,1.577877654,0.069656156,6.559000015,6.130000114,7.625,1.682000041,-0.121889733,0.415220691,0.01207755,0,0,0,-0.005319879,0.049846904,1.15613362,0.003480306,-0.022522764,1.556492325,-0.053159468,0.02368286,0.116793719,0.001409336,-0.028565142,0.004336464,0,1,0,0,1,0,1,0,0,0,0,2.676264195,0,0,199.1961548,0.001771445,0.001771445,0.000444353,0.124370703,0.124370703,0.073487977,0.067441432,0.067441432,0.023503524,0.266276671,0.266276671,0.22877388,0.002214085,0.002214085,0.000467813,0.133231967,0.133231967,0.079316809,0.075582818,0.075582818,0.023631673,0.275880376,0.275880376,0.237670204,2.78E-06,2.78E-06,2.78E-06,2.78E-06,2.78E-06,2.78E-06,0.01,0.01,0.01,0.01,0.01,0.01,0,0,0,0,0,0,0,0,0,0,0,0,0.008860764,0.008860764,0.008860764,1.869953705,1.869953705,1,0,0,0,0,0,0,0.008860764,0.008860764,0,0,0,4,0,0,0,0,0,0,0,0,0,0,0,0,0,0,0.004112866,0,0,0,0.001707037,0.001707037,0.001707037,0.001707037,0,0,0,0,0,0,0,0
2.000285864,1.66858E+18,-0.010017228,0.027817903,1.188845734,0.00361927,-0.029045957,1.560431091,-0.069409489,-0.065122719,0.202119641,0.001499325,-0.03425936,0.008938063,0,0,0,0,0,0,0,0,0,0,0,0,-0.006683014,0.092612741,1.433708145,0.002530226,-0.066879153,1.580887708,0,0,0,0,0,0,-0.024414063,-0.159057617,0,0,0,1.580789263,0,0,0,0,0,0,0,0,0,0,0,0,0,0,0.069656156,0,0,0,6.559000015,6.130000114,7.625,1.682000041,0,0,0,0,0,0,0,0,-0.006683014,1.433708145,-0.092612741,0.002530226,-0.066879153,1.580887708,-0.024414063,-0.159057617,1.580789263,0.069656156,6.559000015,6.130000114,7.625,1.682000041,-0.121889733,0.415220691,0.01207755,0,0,0,-0.007076229,0.060273066,1.173854558,0.003696904,-0.026348989,1.558392571,-0.056909709,0.072817623,0.147164215,0.001579997,-0.031456829,0.006419699,0,1,1,0,0,0,1,1,0,0,0,2.697305976,2.077454503,0,0,0.001537922,0.001537922,0.000511185,0.12443093,0.12443093,0.072559891,0.062670221,0.062670221,0.033082951,0.266698547,0.266698547,0.227727924,0.002355635,0.002355635,0.000542481,0.133301084,0.133301084,0.079797514,0.077441432,0.077441432,0.033503524,0.276276671,0.276276671,0.23877388,2.78E-06,2.78E-06,2.78E-06,2.78E-06,2.78E-06,2.78E-06,0.01,0.01,0.01,0.01,0.01,0.01,0,0,0,0,0,0,0,0,0,0,0,0,0.008860764,0.008860764,0.008860764,1.869953705,1.869953705,1,0,0,0,0,0,0,0.008860764,0.008860764,0,0,0,4,0,0,0,0,0,0,0,0,0,0,0,0,0,0,0.004112866,0,0,0,0.001707037,0.001707037,0.001707037,0.001707037,0,0,0,0,0,0,0,0
2.033856869,1.66858E+18,-0.011681626,0.038461929,1.214140864,0.003530784,-0.032696578,1.562303765,-0.070391655,0.002792152,0.288828397,0.001355661,-0.036862212,0.010884655,0,0,0,0,0,0,0,0,0,0,0,0,-0.008576748,0.092958286,1.457427839,0.001589127,-0.067874988,1.582289867,0,0,0,0,0,0,-0.024414063,-0.159057617,0,0,0,1.580789263,0,0,0,0,0,0,0,0,0,0,0,0,0,0,0.069656156,0,0,0,6.559000015,6.130000114,7.625,1.682000041,0,0,0,0,0,0,0,0,-0.008576748,1.457427839,-0.092958286,0.001589127,-0.067874988,1.582289867,-0.024414063,-0.159057617,1.580789263,0.069656156,6.559000015,6.130000114,7.625,1.682000041,-0.121889733,0.415220691,0.01207755,0,0,0,-0.012398594,0.025877824,1.195589765,0.003669248,-0.030187936,1.560729027,-0.073472481,-0.05128203,0.202522226,0.001499325,-0.03425936,0.008938063,0,1,0,0,0,0,1,0,0,0,0,2.757579552,0,0,0,0.001662254,0.001662254,0.000627781,0.124473663,0.124473663,0.073036972,0.065582811,0.065582811,0.042046847,0.267142872,0.267142872,0.228934541,0.002046096,0.002046096,0.00067565,0.133350128,0.133350128,0.078791678,0.072670221,0.072670221,0.043082951,0.276698547,0.276698547,0.237727924,2.78E-06,2.78E-06,2.78E-06,2.78E-06,2.78E-06,2.78E-06,0.01,0.01,0.01,0.01,0.01,0.01,0,0,0,0,0,0,0,0,0,0,0,0,0.008860764,0.008860764,0.008860764,1.869953705,1.869953705,1,0,0,0,0,0,0,0.008860764,0.008860764,0,0,0,4,0,0,0,0,0,0,0,0,0,0,0,0,0,0,0.004112866,0,0,0,0.001707037,0.001707037,0.001707037,0.001707037,0,0,0,0,0,0,0,0
2.066911697,1.66858E+18,-0.013355563,0.049586863,1.246827244,0.00356639,-0.036114044,1.564153382,-0.071280299,0.062955676,0.407900086,0.001345731,-0.0391303,0.012723283,0,0,0,0,0,0,0,0,0,0,0,0,-0.010393409,0.092813181,1.481072364,0.003432047,-0.066798694,1.582899297,0,0,0,0,0,0,-0.024414063,-0.159057617,0,0,0,1.580789263,0,0,0,0,0,0,0,0,0,0,0,0,0,0,0.069656156,0,0,0,6.556000233,6.130000114,7.624000072,1.690999985,0,0,0,0,0,0,0,0,-0.010393409,1.481072364,-0.092813181,0.003432047,-0.066798694,1.582899297,-0.024414063,-0.159057617,1.580789263,0.069656156,6.556000233,6.130000114,7.624000072,1.690999985,-0.121889733,0.415220691,0.01207755,0,0,0,-0.014095731,0.038785679,1.223775187,0.003575973,-0.033925319,1.562666587,-0.074454646,0.016632842,0.289230981,0.001355661,-0.036862212,0.010884655,0,1,0,0,1,0,1,0,0,0,0,2.658512594,0,0,190.7225816,0.001771445,0.001771445,0.000793863,0.124502427,0.124502427,0.073484736,0.067441426,0.067441426,0.04997651,0.267606459,0.267606459,0.230021484,0.002214085,0.002214085,0.000871988,0.133383142,0.133383142,0.079313033,0.075582811,0.075582811,0.052046847,0.277142872,0.277142872,0.238934541,2.78E-06,2.78E-06,2.78E-06,2.78E-06,2.78E-06,2.78E-06,0.01,0.01,0.01,0.01,0.01,0.01,0,0,0,0,0,0,0,0,0,0,0,0,0.008860764,0.008860764,0.008860764,1.869953705,1.869953705,1,0,0,0,0,0,0,0.008860764,0.008860764,0,0,0,4,0,0,0,0,0,0,0,0,0,0,0,0,0,0,0.004112866,0,0,0,0.001707037,0.001707037,0.001707037,0.001707037,0,0,0,0,0,0,0,0
2.100828648,1.66858E+18,-0.015006685,0.02178987,1.286477808,0.003726236,-0.0393523,1.566218265,-0.036769495,-0.05751152,0.526349973,0.00146477,-0.041132347,0.014752791,0,0,0,0,0,0,0,0,0,0,0,0,-0.012813701,0.093459055,1.507941561,0.007588158,-0.065181141,1.584244063,0,0,0,0,0,0,-0.017478943,-0.162635803,0,0,0,1.579280801,0,0,0,0,0,0,0,0,0,0,0,0,0,0,0.069656156,0,0,0,6.556000233,6.130000114,7.624000072,1.690999985,0,0,0,0,0,0,0,0,-0.012813701,1.507941561,-0.093459055,0.007588158,-0.065181141,1.584244063,-0.017478943,-0.162635803,1.579280801,0.069656156,6.556000233,6.130000114,7.624000072,1.690999985,1.014780304,0.212906747,-0.614317029,0,0,0,-0.015167806,0.051803667,1.260082626,0.003611248,-0.037418387,1.564577492,-0.037454288,0.070052567,0.387422852,0.001345731,-0.0391303,0.012723283,0,1,1,0,0,0,1,1,0,0,0,2.378206517,2.02491142,0,0,0.001537922,0.001537922,0.000997956,0.124520311,0.124520311,0.07256307,0.062670218,0.062670218,0.056467617,0.268086122,0.268086122,0.228947076,0.002355635,0.002355635,0.001124618,0.133403668,0.133403668,0.07980136,0.077441426,0.077441426,0.05997651,0.277606459,0.277606459,0.240021484,2.78E-06,2.78E-06,2.78E-06,2.78E-06,2.78E-06,2.78E-06,0.01,0.01,0.01,0.01,0.01,0.01,0,0,0,0,0,0,0,0,0,0,0,0,0.008860764,0.008860764,0.008860764,1.869953705,1.869953705,1,0,0,0,0,0,0,0.008860764,0.008860764,0,0,0,4,0,0,0,0,0,0,0,0,0,0,0,0,0,0,0.004112866,0,0,0,0.001707037,0.001707037,0.001707037,0.001707037,0,0,0,0,0,0,0,0
2.13358593,1.66858E+18,-0.015436233,0.033941175,1.333162789,0.004156626,-0.042217637,1.568012323,-0.001945136,0.009529148,0.658143892,0.001859477,-0.042678076,0.016364935,0,0,0,0,0,0,0,0,0,0,0,0,-0.014430089,0.094352956,1.517951648,0.009504659,-0.063161306,1.584538129,0,0,0,0,0,0,-0.017478943,-0.162635803,0,0,0,1.579280801,0,0,0,0,0,0,0,0,0,0,0,0,0,0,0.069656156,0,0,0,6.56400013,6.129000187,7.625,1.692999959,0,0,0,0,0,0,0,0,-0.014430089,1.517951648,-0.094352956,0.009504659,-0.063161306,1.584538129,-0.017478943,-0.162635803,1.579280801,0.069656156,6.56400013,6.129000187,7.625,1.692999959,1.014780304,0.212906747,-0.614317029,0,0,0,-0.015668568,0.019991101,1.30368152,0.003775062,-0.040723378,1.566710025,-0.002943485,-0.050414628,0.505872739,0.00146477,-0.041132347,0.014752791,0,1,0,0,1,0,1,0,0,0,0,2.230748893,0,0,185.214168,0.001662254,0.001662254,0.001219146,0.124529999,0.124529999,0.073047466,0.065582809,0.065582809,0.061278792,0.268578719,0.268578719,0.230125636,0.002046096,0.002046096,0.001413649,0.133414788,0.133414788,0.07880389,0.072670218,0.072670218,0.066467617,0.278086122,0.278086122,0.238947076,2.78E-06,2.78E-06,2.78E-06,2.78E-06,2.78E-06,2.78E-06,0.01,0.01,0.01,0.01,0.01,0.01,0,0,0,0,0,0,0,0,0,0,0,0,0.008860764,0.008860764,0.008860764,1.869953705,1.869953705,1,0,0,0,0,0,0,0.008860764,0.008860764,0,0,0,4,0,0,0,0,0,0,0,0,0,0,0,0,0,0,0.004112866,0,0,0,0.001707037,0.001707037,0.001707037,0.001707037,0,0,0,0,0,0,0,0
2.167658806,1.66858E+18,-0.015602712,0.046528954,1.384499363,0.004839589,-0.044646875,1.569819589,0.029027148,0.06874149,0.785620407,0.002501494,-0.043718812,0.017927777,0,0,0,0,0,0,0,0,0,0,0,0,-0.01964836,0.095300575,1.548109307,0.015411798,-0.057721712,1.586458777,0,0,0,0,0,0,-0.017478943,-0.162635803,0,0,0,1.579280801,0,0,0,0,0,0,0,0,0,0,0,0,0,0,0.069656156,0,0,0,6.56400013,6.129000187,7.625,1.692999959,0,0,0,0,0,0,0,0,-0.01964836,1.548109307,-0.095300575,0.015411798,-0.057721712,1.586458777,-0.017478943,-0.162635803,1.579280801,0.069656156,6.56400013,6.129000187,7.625,1.692999959,1.014780304,0.212906747,-0.614317029,0,0,0,-0.014937304,0.034377095,1.354759631,0.004218608,-0.043640239,1.568557821,0.031880874,0.01662604,0.637666657,0.001859477,-0.042678076,0.016364935,0,1,0,0,0,0,1,0,0,0,0,1.879639207,0,0,0,0.001771445,0.001771445,0.001433242,0.124533808,0.124533808,0.073503086,0.067441425,0.067441425,0.064433804,0.26908119,0.26908119,0.231179445,0.002214085,0.002214085,0.001709805,0.13341916,0.13341916,0.07933441,0.075582809,0.075582809,0.071278792,0.278578719,0.278578719,0.240125636,2.78E-06,2.78E-06,2.78E-06,2.78E-06,2.78E-06,2.78E-06,0.01,0.01,0.01,0.01,0.01,0.01,0,0,0,0,0,0,0,0,0,0,0,0,0.008860764,0.008860764,0.008860764,1.869953705,1.869953705,1,0,0,0,0,0,0,0.008860764,0.008860764,0,0,0,4,0,0,0,0,0,0,0,0,0,0,0,0,0,0,0.004112866,0,0,0,0.001707037,0.001707037,0.001707037,0.001707037,0,0,0,0,0,0,0,0
2.200873852,1.66858E+18,-0.018725346,0.022005131,1.437381571,0.005824664,-0.046856996,1.571986993,0.043072934,-0.038633829,0.893914984,0.003433391,-0.044496857,0.01987282,0,0,0,0,0,0,0,0,0,0,0,0,-0.022554652,0.096073174,1.55819095,0.018462443,-0.057408348,1.587605829,0,0,0,0,0,0,-0.032402039,-0.153373718,0,0,0,1.588167185,0,0,0,0,0,0,0,0,0,0,0,0,0,0,0.069656156,0,0,0,6.56400013,6.129000187,7.625,1.692999959,0,0,0,0,0,0,0,0,-0.022554652,1.55819095,-0.096073174,0.018462443,-0.057408348,1.587605829,-0.032402039,-0.153373718,1.588167185,0.069656156,6.56400013,6.129000187,7.625,1.692999959,1.014780304,0.212906747,-0.614317029,0,0,0,-0.014071374,0.048938618,1.410345423,0.004922973,-0.046104169,1.570417182,0.062853158,0.075838381,0.765143173,0.002501494,-0.043718812,0.017927777,0,1,1,0,0,0,1,1,0,0,0,1.490192189,1.918119117,0,0,0.001537922,0.001537922,0.001620346,0.124533719,0.124533719,0.072588558,0.062670218,0.062670218,0.066207516,0.269590587,0.269590587,0.230059054,0.002355635,0.002355635,0.001982966,0.133419057,0.133419057,0.079832187,0.077441425,0.077441425,0.074433804,0.27908119,0.27908119,0.241179445,2.78E-06,2.78E-06,2.78E-06,2.78E-06,2.78E-06,2.78E-06,0.01,0.01,0.01,0.01,0.01,0.01,0,0,0,0,0,0,0,0,0,0,0,0,0.008860764,0.008860764,0.008860764,1.869953705,1.869953705,1,0,0,0,0,0,0,0.008860764,0.008860764,0,0,0,4,0,0,0,0,0,0,0,0,0,0,0,0,0,0,0.004112866,0,0,0,0.001707037,0.001707037,0.001707037,0.001707037,0,0,0,0,0,0,0,0
2.233587503,1.66858E+18,-0.018392862,0.034970911,1.488531664,0.007034074,-0.04917489,1.573848312,0.069735605,0.029202727,0.97244338,0.004564811,-0.045359313,0.02135959,0,0,0,0,0,0,0,0,0,0,0,0,-0.025612128,0.096184794,1.575465287,0.022381004,-0.060873496,1.589054389,0,0,0,0,0,0,-0.032402039,-0.153373718,0,0,0,1.588167185,0,0,0,0,0,0,0,0,0,0,0,0,0,0,0.069656156,0,0,0,6.56400013,6.129000187,7.625,1.692999959,0,0,0,0,0,0,0,0,-0.025612128,1.575465287,-0.096184794,0.022381004,-0.060873496,1.589054389,-0.032402039,-0.153373718,1.588167185,0.069656156,6.56400013,6.129000187,7.625,1.692999959,1.014780304,0.212906747,-0.614317029,0,0,0,-0.016725814,0.020835618,1.46683745,0.00593911,-0.048340225,1.57264942,0.076898945,-0.031536937,0.87343775,0.003433391,-0.044496857,0.01987282,0,1,0,0,0,0,1,0,0,0,0,1.262538151,0,0,0,0.001662254,0.001662254,0.001769595,0.124531407,0.124531407,0.073080999,0.065582809,0.065582809,0.06701018,0.270104096,0.270104096,0.231197805,0.002046096,0.002046096,0.002211196,0.133416404,0.133416404,0.078842918,0.072670218,0.072670218,0.076207516,0.279590587,0.279590587,0.240059054,2.78E-06,2.78E-06,2.78E-06,2.78E-06,2.78E-06,2.78E-06,0.01,0.01,0.01,0.01,0.01,0.01,0,0,0,0,0,0,0,0,0,0,0,0,0.008860764,0.008860764,0.008860764,1.869953705,1.869953705,1,0,0,0,0,0,0,0.008860764,0.008860764,0,0,0,4,0,0,0,0,0,0,0,0,0,0,0,0,0,0,0.004112866,0,0,0,0.001707037,0.001707037,0.001707037,0.001707037,0,0,0,0,0,0,0,0
2.26690793,1.66858E+18,-0.018286474,0.047964325,1.535668247,0.008293478,-0.051604764,1.57564194,0.091630935,0.087342252,1.018125328,0.005708862,-0.046307722,0.022701754,0,0,0,0,0,0,0,0,0,0,0,0,-0.029419633,0.095594944,1.591625535,0.023812931,-0.064470276,1.589267624,0,0,0,0,0,0,-0.032402039,-0.153373718,0,0,0,1.588167185,0,0,0,0,0,0,0,0,0,0,0,0,0,0,0.069656156,0,0,0,6.559999943,6.127999783,7.625999928,1.700000048,0,0,0,0,0,0,0,0,-0.029419633,1.591625535,-0.095594944,0.023812931,-0.064470276,1.589267624,-0.032402039,-0.153373718,1.588167185,0.069656156,6.559999943,6.127999783,7.625999928,1.700000048,1.014780304,0.212906747,-0.614317029,0,0,0,-0.015504575,0.036062617,1.520605156,0.007186235,-0.050686867,1.574560298,0.103561615,0.036299618,0.951966146,0.004564811,-0.045359313,0.02135959,0,1,0,0,1,0,1,0,0,0,0,0.886812455,0,0,172.1086693,0.001771445,0.001771445,0.001879327,0.124528276,0.124528276,0.073544461,0.067441426,0.067441426,0.067251035,0.270619057,0.270619057,0.232208644,0.002214085,0.002214085,0.002385221,0.13341281,0.13341281,0.079382613,0.075582809,0.075582809,0.07701018,0.280104096,0.280104096,0.241197805,2.78E-06,2.78E-06,2.78E-06,2.78E-06,2.78E-06,2.78E-06,0.01,0.01,0.01,0.01,0.01,0.01,0,0,0,0,0,0,0,0,0,0,0,0,0.008860764,0.008860764,0.008860764,1.869953705,1.869953705,1,0,0,0,0,0,0,0.008860764,0.008860764,0,0,0,4,0,0,0,0,0,0,0,0,0,0,0,0,0,0,0.004112866,0,0,0,0.001707037,0.001707037,0.001707037,0.001707037,0,0,0,0,0,0,0,0
2.302412987,1.66858E+18,-0.021938886,0.022584206,1.576838845,0.009296285,-0.054066387,1.577600569,0.094555815,-0.026307702,1.029861555,0.006548449,-0.047256346,0.024193659,0,0,0,0,0,0,0,0,0,0,0,0,-0.031110698,0.096099346,1.603608586,0.020684962,-0.066934109,1.588668591,0,0,0,0,0,0,-0.040115356,-0.157794952,0,0,0,1.593507057,0,0,0,0,0,0,0,0,0,0,0,0,0,0,0.069656156,0,0,0,6.559999943,6.127999783,7.625999928,1.700000048,0,0,0,0,0,0,0,0,-0.031110698,1.603608586,-0.096099346,0.020684962,-0.066934109,1.588668591,-0.040115356,-0.157794952,1.593507057,0.069656156,6.559999943,6.127999783,7.625999928,1.700000048,1.014780304,0.212906747,-0.614317029,0,0,0,-0.014668343,0.050994015,1.56926447,0.008483773,-0.053148355,1.576398666,0.125456945,0.094439143,0.997648094,0.005708862,-0.046307722,0.022701754,0,1,1,0,0,0,1,1,0,0,0,0.556377638,1.986033952,0,0,0.001537922,0.001537922,0.001954185,0.12452548,0.12452548,0.072635632,0.062670219,0.062670219,0.067249897,0.271132982,0.271132982,0.231032546,0.002355635,0.002355635,0.002507112,0.133409601,0.133409601,0.079889128,0.077441426,0.077441426,0.077251035,0.280619057,0.280619057,0.242208644,2.78E-06,2.78E-06,2.78E-06,2.78E-06,2.78E-06,2.78E-06,0.01,0.01,0.01,0.01,0.01,0.01,0,0,0,0,0,0,0,0,0,0,0,0,0.008860764,0.008860764,0.008860764,1.869953705,1.869953705,1,0,0,0,0,0,0,0.008860764,0.008860764,0,0,0,4,0,0,0,0,0,0,0,0,0,0,0,0,0,0,0.004112866,0,0,0,0.001707037,0.001707037,0.001707037,0.001707037,0,0,0,0,0,0,0,0
2.342581272,1.66858E+18,-0.021125556,0.035772844,1.611578706,0.009975513,-0.056439199,1.579062226,0.115910589,0.040720961,1.012503562,0.007024845,-0.048080681,0.025007653,0,0,0,0,0,0,0,0,0,0,0,0,-0.033694161,0.096172528,1.614157106,0.016436512,-0.067619022,1.587365809,0,0,0,0,0,0,-0.040115356,-0.157794952,0,0,0,1.593507057,0,0,0,0,0,0,0,0,0,0,0,0,0,0,-1.523513151,0,0,0,6.561999798,6.107999802,7.626999855,1.715000033,0,0,0,0,0,0,0,0,-0.033694161,1.614157106,-0.096172528,0.016436512,-0.067619022,1.587365809,-0.040115356,-0.157794952,1.593507057,-1.523513151,6.561999798,6.107999802,7.626999855,1.715000033,1.014780304,0.212906747,-0.614317029,0,0,0,-0.018223259,0.021825564,1.610826276,0.009514566,-0.055641598,1.578407024,0.128381826,-0.019210811,1.009384321,0.006548449,-0.047256346,0.024193659,0,1,0,1,1,0,1,0,0,0,0,0.727923371,0,8.879832362,172.7984068,0.001662254,0.001662254,0.002001636,0.124523957,0.124523957,0.07313509,0.06558281,0.06558281,0.067211453,0.271643559,0.271643559,0.232125622,0.002046096,0.002046096,0.002585755,0.133407852,0.133407852,0.078905879,0.072670219,0.072670219,0.077249897,0.281132982,0.281132982,0.241032546,2.78E-06,2.78E-06,2.78E-06,2.78E-06,2.78E-06,2.78E-06,0.01,0.01,0.01,0.01,0.01,0.01,0,0,0,0,0,0,0,0,0,0,0,0,0.008860764,0.008860764,0.008860764,1.869953705,1.869953705,1,0,0,0,0,0,0,0.008860764,0.008860764,0,0,0,4,0,0,0,0,0,0,0,0,0,0,0,0,0,0,0.004112866,0,0,0,0.001707037,0.001707037,0.001707037,0.001707037,0,0,0,0,0,0,0,0
2.368871927,1.66858E+18,-0.020591084,0.048761606,1.640218655,0.010469791,-0.05864303,1.58034276,0.133040846,0.097193931,0.972632309,0.007293757,-0.048702149,0.025563228,0,0,0,0,0,0,0,0,0,0,0,0,-0.036170786,0.094837073,1.624165705,0.014115789,-0.067069095,1.585968041,0,0,0,0,0,0,-0.040115356,-0.157794952,0,0,0,1.593507057,0,0,0,0,0,0,0,0,0,0,0,0,0,0,-1.523513151,0,0,0,6.561999798,6.107999802,7.626999855,1.715000033,0,0,0,0,0,0,0,0,-0.036170786,1.624165705,-0.094837073,0.014115789,-0.067069095,1.585968041,-0.040115356,-0.157794952,1.593507057,-1.523513151,6.561999798,6.107999802,7.626999855,1.715000033,1.014780304,0.212906747,-0.614317029,0,0,0,-0.016698103,0.037248491,1.644987538,0.010209674,-0.058041888,1.579895814,0.149736599,0.047817853,0.992026328,0.007024845,-0.048080681,0.025007653,0,1,0,0,0,0,1,0,0,0,0,0.609508738,0,0,0,0.001771445,0.001771445,0.002029406,0.124524446,0.124524446,0.073604966,0.067441426,0.067441426,0.067240583,0.272148661,0.272148661,0.233089251,0.002214085,0.002214085,0.002632286,0.133408413,0.133408413,0.07945311,0.07558281,0.07558281,0.077211453,0.281643559,0.281643559,0.242125622,2.78E-06,2.78E-06,2.78E-06,2.78E-06,2.78E-06,2.78E-06,0.01,0.01,0.01,0.01,0.01,0.01,0,0,0,0,0,0,0,0,0,0,0,0,0.008860764,0.008860764,0.008860764,1.869953705,1.869953705,1,0,0,0,0,0,0,0.008860764,0.008860764,0,0,0,4,0,0,0,0,0,0,0,0,0,0,0,0,0,0,0.004112866,0,0,0,0.001707037,0.001707037,0.001707037,0.001707037,0,0,0,0,0,0,0,0
